LUTFilters/Resources/PRESET_Kodak_FunSaver.cube
#Created by: Pixelmator Pro
#Color profile: "sRGB IEC61966-2.1"
TITLE "PRESET_Kodak_FunSaver"
#Data domain
DOMAIN_MIN 0.000 0.000 0.000
DOMAIN_MAX 1.000 1.000 1.000
#LUT size
LUT_3D_SIZE 35
0.066 0.125 0.002
0.066 0.125 0.002
0.066 0.125 0.002
0.066 0.125 0.002
0.066 0.125 0.002
0.066 0.125 0.002
0.066 0.125 0.002
0.066 0.125 0.002
0.066 0.125 0.002
0.066 0.125 0.002
0.069 0.125 0.003
0.138 0.125 0.004
0.200 0.125 0.005
0.254 0.125 0.007
0.302 0.125 0.010
0.346 0.125 0.012
0.388 0.125 0.015
0.430 0.125 0.018
0.472 0.125 0.021
0.515 0.125 0.025
0.559 0.125 0.029
0.604 0.125 0.033
0.650 0.125 0.038
0.696 0.125 0.043
0.743 0.125 0.049
0.789 0.125 0.056
0.835 0.125 0.064
0.879 0.125 0.073
0.923 0.125 0.084
0.965 0.125 0.097
1.000 0.125 0.113
1.000 0.125 0.133
1.000 0.125 0.160
1.000 0.125 0.198
1.000 0.290 0.333
0.066 0.125 0.002
0.066 0.125 0.002
0.066 0.125 0.002
0.066 0.125 0.002
0.066 0.125 0.002
0.066 0.125 0.002
0.066 0.125 0.002
0.066 0.125 0.002
0.066 0.125 0.002
0.069 0.125 0.002
0.131 0.127 0.002
0.190 0.128 0.002
0.243 0.129 0.002
0.291 0.129 0.002
0.336 0.128 0.002
0.378 0.128 0.002
0.420 0.126 0.002
0.463 0.125 0.002
0.504 0.125 0.004
0.546 0.125 0.006
0.588 0.125 0.009
0.632 0.125 0.013
0.676 0.125 0.017
0.720 0.125 0.022
0.764 0.125 0.027
0.808 0.125 0.034
0.851 0.125 0.041
0.893 0.125 0.050
0.934 0.125 0.061
0.974 0.125 0.074
1.000 0.125 0.090
1.000 0.125 0.112
1.000 0.125 0.140
1.000 0.138 0.188
1.000 0.309 0.336
0.066 0.125 0.002
0.066 0.125 0.002
0.066 0.125 0.002
0.066 0.125 0.002
0.066 0.125 0.002
0.066 0.125 0.002
0.066 0.125 0.002
0.066 0.125 0.002
0.077 0.126 0.002
0.127 0.132 0.002
0.178 0.136 0.002
0.227 0.139 0.002
0.272 0.141 0.002
0.315 0.143 0.002
0.356 0.144 0.002
0.396 0.144 0.002
0.436 0.144 0.002
0.477 0.144 0.002
0.519 0.143 0.002
0.562 0.142 0.002
0.606 0.140 0.002
0.650 0.138 0.002
0.695 0.135 0.002
0.740 0.131 0.002
0.785 0.127 0.002
0.827 0.125 0.005
0.868 0.125 0.012
0.907 0.125 0.021
0.946 0.125 0.032
0.983 0.125 0.045
1.000 0.125 0.063
1.000 0.125 0.085
1.000 0.125 0.115
1.000 0.166 0.186
1.000 0.328 0.339
0.066 0.125 0.002
0.066 0.125 0.002
0.066 0.125 0.002
0.066 0.125 0.002
0.066 0.125 0.002
0.066 0.125 0.002
0.066 0.125 0.002
0.090 0.131 0.002
0.131 0.140 0.002
0.173 0.146 0.002
0.216 0.151 0.002
0.258 0.155 0.002
0.298 0.159 0.002
0.337 0.162 0.002
0.375 0.164 0.002
0.413 0.165 0.002
0.452 0.166 0.002
0.492 0.166 0.002
0.532 0.166 0.002
0.574 0.166 0.002
0.617 0.165 0.002
0.660 0.164 0.002
0.704 0.162 0.002
0.748 0.159 0.002
0.791 0.156 0.002
0.834 0.152 0.002
0.876 0.146 0.002
0.917 0.139 0.002
0.957 0.130 0.002
0.993 0.125 0.009
1.000 0.125 0.027
1.000 0.125 0.051
1.000 0.139 0.097
1.000 0.195 0.183
1.000 0.347 0.342
0.066 0.125 0.002
0.066 0.125 0.002
0.066 0.125 0.002
0.066 0.125 0.002
0.066 0.125 0.002
0.069 0.127 0.002
0.095 0.138 0.002
0.128 0.149 0.002
0.166 0.158 0.002
0.208 0.167 0.002
0.248 0.173 0.002
0.285 0.177 0.002
0.321 0.181 0.002
0.357 0.184 0.002
0.394 0.187 0.002
0.431 0.189 0.002
0.468 0.191 0.002
0.507 0.192 0.002
0.546 0.193 0.002
0.587 0.193 0.002
0.629 0.193 0.002
0.671 0.192 0.002
0.713 0.191 0.002
0.756 0.190 0.002
0.798 0.187 0.002
0.840 0.184 0.002
0.881 0.180 0.002
0.921 0.175 0.002
0.960 0.167 0.002
0.997 0.156 0.002
1.000 0.143 0.004
1.000 0.142 0.026
1.000 0.173 0.092
1.000 0.224 0.180
1.000 0.367 0.346
0.066 0.125 0.002
0.066 0.125 0.002
0.066 0.125 0.002
0.066 0.125 0.002
0.079 0.137 0.002
0.099 0.150 0.002
0.124 0.161 0.002
0.155 0.171 0.002
0.191 0.181 0.002
0.230 0.190 0.002
0.269 0.198 0.002
0.308 0.204 0.002
0.344 0.209 0.002
0.378 0.212 0.002
0.413 0.215 0.002
0.448 0.217 0.002
0.485 0.219 0.002
0.522 0.221 0.002
0.561 0.222 0.002
0.601 0.223 0.002
0.641 0.223 0.002
0.682 0.223 0.002
0.723 0.223 0.002
0.764 0.222 0.002
0.805 0.221 0.002
0.846 0.219 0.002
0.886 0.216 0.002
0.925 0.211 0.002
0.963 0.206 0.002
0.998 0.197 0.002
1.000 0.187 0.004
1.000 0.189 0.030
1.000 0.210 0.089
1.000 0.254 0.177
1.000 0.388 0.350
0.066 0.125 0.002
0.067 0.129 0.002
0.073 0.141 0.002
0.084 0.152 0.002
0.099 0.164 0.002
0.120 0.176 0.002
0.147 0.188 0.002
0.177 0.198 0.002
0.211 0.207 0.002
0.248 0.216 0.002
0.285 0.224 0.002
0.322 0.231 0.002
0.360 0.238 0.002
0.398 0.243 0.002
0.432 0.246 0.002
0.466 0.248 0.002
0.502 0.250 0.002
0.539 0.252 0.002
0.576 0.253 0.002
0.615 0.255 0.002
0.654 0.255 0.002
0.694 0.256 0.002
0.734 0.256 0.002
0.774 0.256 0.002
0.813 0.255 0.002
0.853 0.254 0.002
0.892 0.252 0.002
0.929 0.249 0.002
0.966 0.245 0.002
0.999 0.238 0.002
1.000 0.230 0.004
1.000 0.236 0.035
1.000 0.254 0.094
1.000 0.287 0.175
1.000 0.410 0.354
0.070 0.154 0.002
0.076 0.164 0.002
0.086 0.174 0.002
0.099 0.184 0.002
0.116 0.194 0.002
0.138 0.205 0.002
0.165 0.217 0.002
0.195 0.227 0.002
0.228 0.236 0.002
0.263 0.245 0.002
0.298 0.253 0.002
0.334 0.260 0.002
0.371 0.267 0.002
0.408 0.272 0.002
0.446 0.277 0.002
0.485 0.282 0.002
0.520 0.284 0.002
0.555 0.285 0.002
0.592 0.287 0.002
0.629 0.288 0.002
0.667 0.289 0.002
0.706 0.290 0.002
0.745 0.290 0.002
0.783 0.290 0.002
0.822 0.290 0.002
0.860 0.290 0.002
0.897 0.288 0.002
0.934 0.286 0.002
0.970 0.283 0.002
1.000 0.279 0.002
1.000 0.273 0.005
1.000 0.281 0.041
1.000 0.296 0.100
1.000 0.324 0.181
1.000 0.435 0.359
0.076 0.192 0.002
0.085 0.200 0.002
0.097 0.209 0.002
0.111 0.217 0.002
0.130 0.227 0.002
0.152 0.237 0.002
0.179 0.247 0.002
0.210 0.257 0.002
0.243 0.267 0.002
0.276 0.275 0.002
0.310 0.283 0.002
0.345 0.290 0.002
0.381 0.296 0.002
0.417 0.302 0.002
0.455 0.307 0.002
0.493 0.312 0.002
0.533 0.316 0.002
0.572 0.320 0.002
0.608 0.321 0.002
0.645 0.323 0.002
0.681 0.324 0.002
0.719 0.324 0.002
0.756 0.325 0.002
0.793 0.325 0.002
0.831 0.326 0.002
0.867 0.325 0.002
0.904 0.325 0.002
0.939 0.323 0.002
0.974 0.321 0.002
1.000 0.318 0.002
1.000 0.314 0.006
1.000 0.323 0.048
1.000 0.336 0.107
1.000 0.360 0.187
1.000 0.461 0.365
0.086 0.228 0.007
0.097 0.235 0.008
0.110 0.242 0.008
0.126 0.250 0.007
0.144 0.259 0.005
0.165 0.268 0.003
0.192 0.278 0.002
0.222 0.287 0.002
0.254 0.297 0.002
0.288 0.306 0.002
0.321 0.313 0.002
0.355 0.320 0.002
0.390 0.326 0.002
0.426 0.332 0.002
0.463 0.337 0.002
0.501 0.342 0.002
0.540 0.347 0.002
0.580 0.351 0.002
0.620 0.355 0.002
0.660 0.358 0.002
0.696 0.359 0.002
0.732 0.359 0.002
0.768 0.360 0.002
0.804 0.361 0.002
0.839 0.361 0.002
0.875 0.361 0.002
0.910 0.361 0.002
0.945 0.360 0.002
0.978 0.358 0.002
1.000 0.356 0.002
1.000 0.355 0.013
1.000 0.363 0.056
1.000 0.375 0.114
1.000 0.395 0.193
1.000 0.488 0.371
0.104 0.260 0.023
0.116 0.267 0.023
0.129 0.274 0.024
0.144 0.281 0.023
0.161 0.289 0.022
0.181 0.297 0.019
0.205 0.307 0.014
0.233 0.317 0.007
0.264 0.326 0.002
0.297 0.335 0.002
0.331 0.343 0.002
0.364 0.349 0.002
0.399 0.356 0.002
0.434 0.361 0.002
0.471 0.367 0.002
0.508 0.372 0.002
0.547 0.377 0.002
0.586 0.381 0.002
0.626 0.385 0.002
0.666 0.389 0.002
0.707 0.393 0.002
0.745 0.395 0.002
0.779 0.396 0.002
0.814 0.396 0.002
0.849 0.396 0.002
0.883 0.397 0.002
0.917 0.396 0.002
0.950 0.396 0.002
0.982 0.395 0.002
1.000 0.393 0.002
1.000 0.395 0.022
1.000 0.402 0.065
1.000 0.412 0.122
1.000 0.430 0.200
1.000 0.516 0.377
0.123 0.292 0.040
0.135 0.297 0.041
0.148 0.304 0.041
0.162 0.310 0.041
0.179 0.318 0.040
0.198 0.325 0.038
0.219 0.334 0.034
0.245 0.344 0.028
0.273 0.353 0.018
0.306 0.363 0.006
0.340 0.372 0.002
0.373 0.379 0.002
0.407 0.385 0.002
0.442 0.391 0.002
0.478 0.396 0.002
0.515 0.402 0.002
0.553 0.407 0.002
0.592 0.411 0.002
0.632 0.416 0.002
0.672 0.420 0.002
0.711 0.424 0.002
0.751 0.427 0.002
0.790 0.431 0.002
0.825 0.432 0.002
0.858 0.432 0.002
0.891 0.433 0.002
0.923 0.432 0.002
0.955 0.432 0.002
0.987 0.431 0.002
1.000 0.430 0.002
1.000 0.433 0.030
1.000 0.439 0.074
1.000 0.449 0.131
1.000 0.465 0.207
1.000 0.545 0.384
0.144 0.322 0.059
0.155 0.327 0.060
0.168 0.333 0.060
0.181 0.339 0.060
0.197 0.345 0.060
0.214 0.353 0.058
0.235 0.361 0.055
0.258 0.370 0.049
0.284 0.379 0.041
0.313 0.389 0.030
0.346 0.399 0.015
0.381 0.408 0.002
0.415 0.415 0.002
0.450 0.420 0.002
0.485 0.426 0.002
0.522 0.431 0.002
0.560 0.436 0.002
0.598 0.441 0.002
0.637 0.446 0.002
0.676 0.450 0.002
0.716 0.455 0.002
0.755 0.459 0.002
0.793 0.463 0.002
0.831 0.466 0.002
0.867 0.469 0.002
0.898 0.469 0.002
0.930 0.469 0.002
0.961 0.469 0.002
0.991 0.468 0.002
1.000 0.468 0.007
1.000 0.472 0.040
1.000 0.477 0.083
1.000 0.485 0.140
1.000 0.500 0.215
1.000 0.574 0.392
0.164 0.351 0.079
0.176 0.355 0.080
0.187 0.361 0.080
0.200 0.366 0.080
0.215 0.373 0.080
0.231 0.380 0.078
0.250 0.387 0.076
0.271 0.396 0.071
0.296 0.405 0.065
0.323 0.414 0.055
0.353 0.424 0.042
0.386 0.434 0.025
0.422 0.444 0.006
0.457 0.450 0.002
0.493 0.456 0.002
0.529 0.461 0.002
0.566 0.466 0.002
0.604 0.471 0.002
0.642 0.476 0.002
0.681 0.481 0.002
0.720 0.485 0.002
0.758 0.490 0.002
0.796 0.494 0.002
0.834 0.498 0.002
0.870 0.502 0.002
0.906 0.506 0.002
0.936 0.506 0.002
0.966 0.506 0.002
0.995 0.505 0.002
1.000 0.506 0.017
1.000 0.509 0.050
1.000 0.514 0.094
1.000 0.521 0.149
1.000 0.535 0.223
1.000 0.603 0.399
0.185 0.379 0.099
0.196 0.383 0.100
0.207 0.388 0.100
0.219 0.393 0.100
0.233 0.399 0.100
0.249 0.406 0.099
0.266 0.413 0.097
0.286 0.421 0.093
0.308 0.430 0.088
0.333 0.440 0.080
0.361 0.450 0.069
0.392 0.460 0.054
0.426 0.469 0.036
0.463 0.479 0.014
0.499 0.486 0.006
0.535 0.491 0.004
0.572 0.496 0.003
0.610 0.501 0.002
0.647 0.507 0.002
0.686 0.512 0.002
0.724 0.516 0.002
0.762 0.521 0.002
0.799 0.526 0.002
0.836 0.530 0.002
0.872 0.535 0.002
0.907 0.539 0.002
0.941 0.543 0.002
0.971 0.544 0.002
0.998 0.543 0.002
1.000 0.545 0.028
1.000 0.547 0.061
1.000 0.551 0.104
1.000 0.557 0.159
1.000 0.569 0.231
1.000 0.632 0.407
0.206 0.406 0.119
0.216 0.411 0.120
0.227 0.415 0.120
0.238 0.420 0.121
0.251 0.426 0.120
0.266 0.432 0.120
0.282 0.439 0.118
0.300 0.447 0.115
0.321 0.456 0.111
0.345 0.465 0.104
0.371 0.475 0.094
0.400 0.485 0.082
0.432 0.495 0.066
0.466 0.505 0.046
0.504 0.514 0.023
0.541 0.521 0.015
0.577 0.526 0.012
0.614 0.532 0.010
0.651 0.537 0.008
0.689 0.542 0.006
0.727 0.547 0.004
0.765 0.553 0.003
0.803 0.557 0.002
0.839 0.562 0.002
0.875 0.567 0.002
0.909 0.572 0.002
0.943 0.576 0.002
0.975 0.580 0.002
0.999 0.582 0.012
1.000 0.583 0.039
1.000 0.585 0.073
1.000 0.587 0.115
1.000 0.593 0.169
1.000 0.603 0.239
1.000 0.660 0.416
0.226 0.434 0.139
0.236 0.438 0.140
0.246 0.443 0.141
0.257 0.448 0.141
0.269 0.453 0.141
0.283 0.459 0.140
0.298 0.466 0.139
0.315 0.474 0.137
0.335 0.482 0.133
0.357 0.491 0.128
0.382 0.501 0.120
0.409 0.511 0.109
0.439 0.521 0.095
0.471 0.531 0.078
0.507 0.541 0.057
0.545 0.550 0.032
0.582 0.556 0.024
0.618 0.562 0.022
0.655 0.567 0.019
0.692 0.573 0.017
0.729 0.578 0.014
0.767 0.584 0.012
0.804 0.589 0.009
0.840 0.594 0.007
0.876 0.599 0.005
0.911 0.604 0.004
0.944 0.609 0.002
0.975 0.614 0.010
1.000 0.619 0.025
1.000 0.621 0.051
1.000 0.622 0.085
1.000 0.624 0.127
1.000 0.628 0.179
1.000 0.637 0.248
1.000 0.688 0.425
0.246 0.463 0.159
0.256 0.466 0.160
0.265 0.471 0.161
0.276 0.475 0.161
0.287 0.481 0.161
0.300 0.487 0.161
0.314 0.493 0.160
0.331 0.501 0.158
0.349 0.509 0.155
0.370 0.518 0.150
0.394 0.527 0.144
0.419 0.537 0.135
0.447 0.547 0.124
0.478 0.557 0.109
0.512 0.567 0.091
0.548 0.577 0.069
0.586 0.586 0.042
0.623 0.592 0.034
0.659 0.598 0.031
0.695 0.603 0.029
0.732 0.609 0.026
0.769 0.614 0.023
0.805 0.620 0.020
0.841 0.625 0.017
0.877 0.631 0.015
0.911 0.636 0.012
0.944 0.642 0.018
0.974 0.647 0.029
0.999 0.653 0.044
1.000 0.658 0.065
1.000 0.658 0.098
1.000 0.660 0.139
1.000 0.662 0.190
1.000 0.670 0.257
1.000 0.715 0.434
0.267 0.492 0.179
0.276 0.495 0.181
0.285 0.499 0.181
0.294 0.504 0.182
0.305 0.509 0.182
0.317 0.515 0.181
0.331 0.521 0.181
0.347 0.528 0.179
0.365 0.536 0.177
0.384 0.545 0.173
0.406 0.554 0.168
0.431 0.564 0.160
0.457 0.574 0.150
0.486 0.584 0.138
0.518 0.593 0.123
0.552 0.603 0.104
0.588 0.613 0.081
0.627 0.622 0.053
0.663 0.628 0.045
0.699 0.634 0.042
0.735 0.639 0.039
0.771 0.645 0.035
0.807 0.651 0.032
0.842 0.656 0.029
0.877 0.662 0.026
0.910 0.668 0.031
0.942 0.673 0.039
0.973 0.679 0.050
0.999 0.684 0.064
1.000 0.690 0.084
1.000 0.694 0.111
1.000 0.695 0.151
1.000 0.697 0.201
1.000 0.702 0.266
1.000 0.742 0.444
0.287 0.522 0.200
0.295 0.525 0.201
0.304 0.529 0.202
0.313 0.533 0.202
0.324 0.538 0.202
0.335 0.544 0.202
0.349 0.550 0.202
0.363 0.557 0.200
0.380 0.565 0.198
0.399 0.573 0.195
0.420 0.582 0.191
0.444 0.591 0.185
0.469 0.601 0.177
0.496 0.611 0.166
0.526 0.620 0.153
0.558 0.630 0.137
0.593 0.640 0.117
0.629 0.649 0.093
0.667 0.659 0.064
0.703 0.665 0.056
0.738 0.670 0.052
0.773 0.676 0.049
0.809 0.681 0.045
0.843 0.687 0.044
0.877 0.693 0.048
0.909 0.698 0.054
0.941 0.704 0.061
0.971 0.709 0.072
0.999 0.715 0.085
1.000 0.721 0.104
1.000 0.727 0.128
1.000 0.729 0.165
1.000 0.730 0.213
1.000 0.734 0.276
1.000 0.768 0.454
0.307 0.553 0.220
0.316 0.556 0.222
0.324 0.560 0.223
0.333 0.564 0.223
0.343 0.569 0.223
0.354 0.574 0.223
0.367 0.580 0.223
0.381 0.587 0.222
0.397 0.594 0.220
0.415 0.602 0.218
0.435 0.611 0.214
0.457 0.620 0.209
0.482 0.629 0.202
0.508 0.638 0.194
0.536 0.648 0.183
0.566 0.657 0.169
0.598 0.667 0.152
0.633 0.677 0.132
0.669 0.686 0.107
0.707 0.695 0.076
0.742 0.701 0.067
0.776 0.706 0.064
0.810 0.712 0.066
0.843 0.717 0.069
0.876 0.722 0.073
0.908 0.728 0.078
0.940 0.733 0.085
0.970 0.739 0.095
0.998 0.745 0.107
1.000 0.751 0.124
1.000 0.757 0.147
1.000 0.762 0.178
1.000 0.762 0.225
1.000 0.765 0.287
1.000 0.794 0.465
0.329 0.586 0.242
0.337 0.588 0.243
0.345 0.592 0.244
0.353 0.596 0.244
0.363 0.601 0.244
0.373 0.606 0.244
0.385 0.611 0.244
0.399 0.618 0.243
0.415 0.625 0.242
0.432 0.632 0.240
0.452 0.640 0.237
0.473 0.649 0.233
0.496 0.658 0.227
0.520 0.667 0.220
0.547 0.676 0.211
0.575 0.685 0.200
0.606 0.694 0.186
0.638 0.704 0.168
0.673 0.713 0.147
0.708 0.722 0.123
0.745 0.731 0.095
0.779 0.736 0.091
0.811 0.741 0.092
0.844 0.746 0.095
0.876 0.751 0.098
0.907 0.756 0.103
0.938 0.762 0.110
0.968 0.768 0.119
0.997 0.773 0.130
1.000 0.779 0.146
1.000 0.785 0.167
1.000 0.792 0.196
1.000 0.794 0.238
1.000 0.795 0.299
1.000 0.819 0.477
0.351 0.620 0.263
0.359 0.622 0.265
0.366 0.625 0.266
0.374 0.629 0.266
0.384 0.634 0.266
0.394 0.638 0.266
0.406 0.644 0.266
0.419 0.650 0.266
0.434 0.656 0.265
0.451 0.664 0.263
0.469 0.671 0.260
0.490 0.679 0.257
0.511 0.688 0.252
0.535 0.696 0.246
0.560 0.705 0.239
0.587 0.714 0.229
0.615 0.722 0.219
0.645 0.731 0.207
0.677 0.740 0.191
0.711 0.748 0.173
0.745 0.756 0.151
0.781 0.765 0.124
0.813 0.770 0.120
0.844 0.775 0.122
0.876 0.779 0.126
0.906 0.784 0.130
0.937 0.790 0.136
0.967 0.795 0.144
0.996 0.801 0.154
1.000 0.807 0.169
1.000 0.813 0.188
1.000 0.819 0.214
1.000 0.825 0.252
1.000 0.825 0.311
1.000 0.844 0.490
0.374 0.655 0.286
0.382 0.657 0.288
0.389 0.660 0.289
0.397 0.664 0.289
0.406 0.668 0.289
0.416 0.672 0.289
0.427 0.677 0.289
0.440 0.683 0.289
0.455 0.689 0.288
0.471 0.696 0.287
0.489 0.703 0.284
0.508 0.711 0.282
0.529 0.718 0.279
0.551 0.726 0.275
0.575 0.734 0.270
0.600 0.742 0.264
0.627 0.750 0.256
0.654 0.757 0.246
0.684 0.766 0.234
0.715 0.774 0.220
0.747 0.782 0.202
0.780 0.790 0.181
0.814 0.798 0.154
0.846 0.803 0.151
0.876 0.807 0.154
0.906 0.812 0.157
0.936 0.817 0.163
0.965 0.822 0.170
0.994 0.827 0.179
1.000 0.833 0.192
1.000 0.839 0.210
1.000 0.845 0.234
1.000 0.852 0.269
1.000 0.853 0.324
1.000 0.869 0.505
0.399 0.692 0.310
0.407 0.694 0.313
0.414 0.697 0.313
0.421 0.700 0.313
0.430 0.704 0.314
0.440 0.708 0.314
0.451 0.712 0.314
0.464 0.717 0.315
0.478 0.723 0.315
0.494 0.728 0.314
0.511 0.735 0.313
0.529 0.742 0.312
0.549 0.748 0.310
0.570 0.755 0.307
0.592 0.762 0.303
0.615 0.770 0.298
0.640 0.777 0.292
0.665 0.784 0.284
0.692 0.792 0.275
0.721 0.799 0.264
0.750 0.807 0.249
0.781 0.814 0.233
0.813 0.822 0.212
0.847 0.830 0.186
0.877 0.834 0.182
0.906 0.839 0.186
0.935 0.843 0.191
0.964 0.848 0.197
0.992 0.853 0.205
1.000 0.859 0.217
1.000 0.864 0.233
1.000 0.870 0.255
1.000 0.877 0.288
1.000 0.881 0.339
1.000 0.893 0.521
0.428 0.729 0.339
0.436 0.730 0.342
0.443 0.733 0.343
0.450 0.736 0.343
0.459 0.739 0.344
0.468 0.743 0.345
0.479 0.747 0.345
0.491 0.751 0.345
0.504 0.756 0.346
0.519 0.761 0.346
0.535 0.767 0.345
0.553 0.773 0.344
0.571 0.779 0.342
0.591 0.785 0.340
0.611 0.792 0.337
0.633 0.798 0.334
0.655 0.805 0.329
0.679 0.811 0.323
0.703 0.818 0.315
0.729 0.825 0.306
0.756 0.832 0.295
0.785 0.839 0.281
0.815 0.846 0.265
0.845 0.853 0.245
0.877 0.860 0.220
