LUTFilters/Resources/PRESET_Fujifilm_QuickSnap.cube
#Created by: Pixelmator Pro
#Color profile: "sRGB IEC61966-2.1"
TITLE "PRESET_Fujifilm_QuickSnap"
#Data domain
DOMAIN_MIN 0.000 0.000 0.000
DOMAIN_MAX 1.000 1.000 1.000
#LUT size
LUT_3D_SIZE 35
0.066 0.125 0.002
0.066 0.125 0.002
0.066 0.125 0.002
0.066 0.125 0.002
0.066 0.125 0.002
0.066 0.125 0.002
0.066 0.125 0.002
0.066 0.125 0.002
0.117 0.126 0.002
0.182 0.128 0.002
0.241 0.130 0.002
0.294 0.132 0.002
0.342 0.134 0.002
0.388 0.136 0.002
0.432 0.139 0.002
0.476 0.141 0.002
0.520 0.144 0.002
0.564 0.147 0.002
0.607 0.150 0.002
0.650 0.153 0.002
0.692 0.156 0.003
0.728 0.167 0.011
0.763 0.178 0.021
0.798 0.191 0.032
0.831 0.205 0.046
0.863 0.220 0.061
0.895 0.237 0.079
0.925 0.257 0.100
0.955 0.278 0.124
0.983 0.303 0.151
1.000 0.331 0.184
1.000 0.356 0.208
1.000 0.386 0.238
1.000 0.428 0.278
1.000 0.528 0.388
0.066 0.125 0.002
0.066 0.125 0.002
0.066 0.125 0.002
0.066 0.125 0.002
0.066 0.125 0.002
0.066 0.125 0.002
0.074 0.126 0.002
0.122 0.132 0.002
0.174 0.138 0.002
0.226 0.143 0.002
0.275 0.148 0.002
0.320 0.152 0.002
0.364 0.156 0.002
0.407 0.160 0.002
0.449 0.164 0.002
0.492 0.167 0.002
0.534 0.171 0.002
0.576 0.174 0.002
0.618 0.178 0.002
0.660 0.182 0.002
0.698 0.189 0.007
0.733 0.199 0.016
0.768 0.209 0.026
0.801 0.221 0.038
0.834 0.234 0.052
0.866 0.248 0.067
0.896 0.264 0.085
0.926 0.281 0.105
0.956 0.301 0.129
0.984 0.323 0.156
1.000 0.349 0.188
1.000 0.371 0.211
1.000 0.400 0.240
1.000 0.441 0.280
1.000 0.539 0.391
0.066 0.125 0.002
0.066 0.125 0.002
0.066 0.125 0.002
0.066 0.125 0.002
0.066 0.125 0.002
0.085 0.134 0.002
0.123 0.145 0.002
0.173 0.153 0.002
0.216 0.160 0.002
0.260 0.166 0.002
0.302 0.172 0.002
0.344 0.177 0.002
0.385 0.182 0.002
0.425 0.187 0.002
0.466 0.191 0.002
0.507 0.196 0.002
0.548 0.200 0.002
0.589 0.204 0.002
0.630 0.208 0.002
0.668 0.213 0.004
0.704 0.221 0.012
0.738 0.230 0.021
0.772 0.240 0.032
0.805 0.251 0.044
0.837 0.262 0.058
0.868 0.275 0.073
0.898 0.289 0.091
0.928 0.305 0.111
0.957 0.322 0.134
0.985 0.343 0.161
1.000 0.366 0.191
1.000 0.387 0.214
1.000 0.415 0.243
1.000 0.454 0.283
1.000 0.550 0.393
0.066 0.125 0.002
0.066 0.125 0.002
0.066 0.125 0.002
0.067 0.130 0.002
0.077 0.149 0.002
0.103 0.163 0.002
0.138 0.175 0.002
0.182 0.186 0.002
0.231 0.194 0.002
0.284 0.197 0.002
0.327 0.202 0.002
0.365 0.207 0.002
0.404 0.213 0.002
0.443 0.217 0.002
0.482 0.222 0.002
0.522 0.226 0.002
0.562 0.230 0.002
0.601 0.234 0.002
0.640 0.239 0.003
0.675 0.246 0.010
0.710 0.253 0.018
0.743 0.262 0.028
0.776 0.270 0.038
0.808 0.280 0.051
0.840 0.290 0.064
0.870 0.301 0.080
0.900 0.314 0.097
0.929 0.328 0.117
0.958 0.344 0.140
0.986 0.363 0.167
1.000 0.384 0.194
1.000 0.404 0.217
1.000 0.431 0.245
1.000 0.469 0.285
1.000 0.563 0.396
0.066 0.125 0.002
0.066 0.126 0.002
0.068 0.143 0.002
0.071 0.162 0.002
0.075 0.183 0.002
0.096 0.200 0.002
0.138 0.211 0.002
0.182 0.222 0.002
0.229 0.232 0.002
0.277 0.239 0.002
0.327 0.244 0.002
0.379 0.245 0.002
0.423 0.246 0.002
0.460 0.251 0.002
0.499 0.255 0.002
0.537 0.259 0.002
0.575 0.263 0.002
0.614 0.267 0.003
0.648 0.273 0.008
0.683 0.279 0.016
0.716 0.286 0.025
0.749 0.293 0.035
0.781 0.300 0.046
0.812 0.309 0.058
0.843 0.318 0.072
0.873 0.328 0.087
0.902 0.339 0.105
0.931 0.352 0.124
0.959 0.367 0.147
0.986 0.384 0.173
1.000 0.402 0.198
1.000 0.422 0.220
1.000 0.447 0.248
1.000 0.484 0.288
1.000 0.576 0.399
0.066 0.151 0.002
0.071 0.163 0.002
0.073 0.178 0.002
0.080 0.193 0.007
0.090 0.209 0.014
0.100 0.228 0.022
0.121 0.248 0.019
0.169 0.261 0.002
0.221 0.270 0.002
0.269 0.278 0.002
0.317 0.285 0.002
0.365 0.289 0.002
0.415 0.291 0.002
0.468 0.290 0.002
0.515 0.290 0.002
0.552 0.293 0.002
0.589 0.297 0.003
0.623 0.302 0.009
0.657 0.307 0.016
0.690 0.312 0.024
0.723 0.318 0.033
0.755 0.324 0.043
0.786 0.331 0.054
0.817 0.338 0.066
0.847 0.346 0.080
0.876 0.355 0.095
0.905 0.365 0.113
0.933 0.377 0.132
0.960 0.390 0.155
0.987 0.407 0.180
1.000 0.423 0.202
1.000 0.441 0.224
1.000 0.465 0.252
1.000 0.501 0.291
1.000 0.590 0.403
0.066 0.193 0.002
0.078 0.200 0.004
0.087 0.211 0.012
0.097 0.223 0.021
0.107 0.237 0.030
0.119 0.254 0.040
0.130 0.273 0.049
0.151 0.292 0.048
0.202 0.306 0.023
0.255 0.316 0.003
0.305 0.323 0.002
0.353 0.329 0.002
0.400 0.333 0.002
0.449 0.336 0.002
0.500 0.337 0.002
0.554 0.335 0.002
0.600 0.333 0.011
0.633 0.337 0.017
0.666 0.342 0.025
0.698 0.346 0.033
0.730 0.351 0.043
0.761 0.356 0.053
0.791 0.362 0.064
0.821 0.368 0.076
0.850 0.376 0.090
0.879 0.384 0.105
0.907 0.393 0.122
0.935 0.403 0.141
0.962 0.416 0.163
0.988 0.430 0.188
1.000 0.445 0.207
1.000 0.462 0.228
1.000 0.485 0.256
1.000 0.520 0.294
1.000 0.606 0.407
0.076 0.231 0.011
0.094 0.235 0.019
0.105 0.244 0.028
0.115 0.255 0.038
0.126 0.267 0.048
0.138 0.281 0.059
0.151 0.297 0.070
0.163 0.316 0.080
0.183 0.335 0.081
0.233 0.348 0.052
0.285 0.359 0.028
0.336 0.367 0.009
0.385 0.372 0.002
0.433 0.376 0.002
0.481 0.379 0.002
0.531 0.381 0.002
0.582 0.381 0.005
0.629 0.379 0.019
0.675 0.377 0.036
0.706 0.381 0.044
0.737 0.385 0.053
0.767 0.389 0.064
0.797 0.394 0.075
0.826 0.400 0.087
0.854 0.406 0.100
0.882 0.413 0.115
0.910 0.421 0.132
0.937 0.431 0.150
0.963 0.442 0.172
0.990 0.456 0.195
1.000 0.468 0.212
1.000 0.485 0.233
1.000 0.507 0.260
1.000 0.540 0.298
1.000 0.624 0.412
0.092 0.268 0.029
0.112 0.270 0.037
0.125 0.277 0.046
0.135 0.286 0.057
0.147 0.297 0.068
0.159 0.309 0.080
0.172 0.323 0.091
0.185 0.339 0.102
0.197 0.357 0.113
0.214 0.376 0.117
0.263 0.389 0.087
0.313 0.400 0.060
0.362 0.408 0.037
0.411 0.414 0.022
0.461 0.419 0.011
0.510 0.422 0.008
0.559 0.424 0.009
0.607 0.425 0.017
0.654 0.425 0.029
0.699 0.423 0.045
0.744 0.421 0.065
0.774 0.424 0.076
0.803 0.428 0.087
0.831 0.433 0.099
0.858 0.438 0.112
0.886 0.445 0.127
0.912 0.452 0.143
0.939 0.460 0.161
0.965 0.471 0.182
0.992 0.482 0.201
1.000 0.494 0.218
1.000 0.510 0.238
1.000 0.531 0.265
1.000 0.563 0.302
1.000 0.643 0.417
0.111 0.303 0.049
0.132 0.305 0.057
0.147 0.309 0.067
0.157 0.317 0.078
0.168 0.327 0.089
0.180 0.337 0.101
0.193 0.349 0.113
0.206 0.363 0.125
0.219 0.379 0.136
0.231 0.396 0.147
0.245 0.416 0.154
0.291 0.429 0.124
0.339 0.440 0.095
0.387 0.448 0.071
0.435 0.455 0.052
0.484 0.460 0.039
0.533 0.464 0.032
0.582 0.466 0.030
0.631 0.468 0.033
0.677 0.469 0.043
0.723 0.468 0.058
0.766 0.466 0.077
0.808 0.463 0.100
0.836 0.467 0.112
0.863 0.472 0.125
0.889 0.477 0.139
0.915 0.484 0.155
0.941 0.491 0.172
0.967 0.501 0.192
0.994 0.510 0.207
1.000 0.521 0.224
1.000 0.536 0.244
1.000 0.556 0.270
1.000 0.586 0.307
1.000 0.663 0.423
0.132 0.336 0.071
0.152 0.337 0.079
0.170 0.340 0.089
0.180 0.348 0.099
0.190 0.356 0.110
0.202 0.365 0.122
0.214 0.376 0.134
0.226 0.388 0.146
0.239 0.402 0.158
0.252 0.417 0.170
0.264 0.435 0.180
0.276 0.454 0.188
0.318 0.468 0.161
0.364 0.478 0.133
0.411 0.487 0.108
0.458 0.495 0.087
0.507 0.500 0.071
0.557 0.505 0.060
0.605 0.508 0.056
0.654 0.510 0.056
0.701 0.511 0.062
0.746 0.512 0.075
0.789 0.511 0.093
0.830 0.509 0.115
0.867 0.507 0.138
0.893 0.511 0.152
0.918 0.517 0.167
0.943 0.524 0.184
0.969 0.531 0.201
0.996 0.539 0.214
1.000 0.550 0.230
1.000 0.564 0.250
1.000 0.583 0.276
1.000 0.611 0.312
1.000 0.683 0.429
0.154 0.368 0.094
0.173 0.369 0.102
0.192 0.370 0.111
0.202 0.377 0.121
0.212 0.384 0.132
0.223 0.392 0.143
0.234 0.402 0.155
0.246 0.413 0.167
0.259 0.425 0.179
0.271 0.439 0.191
0.283 0.455 0.202
0.295 0.473 0.212
0.306 0.491 0.220
0.344 0.505 0.197
0.388 0.516 0.171
0.434 0.526 0.146
0.481 0.534 0.123
0.530 0.540 0.106
0.579 0.545 0.092
0.628 0.549 0.084
0.677 0.551 0.083
0.724 0.553 0.085
0.769 0.554 0.095
0.812 0.554 0.112
0.853 0.552 0.134
0.892 0.549 0.160
0.921 0.550 0.180
0.946 0.556 0.197
0.972 0.562 0.209
0.998 0.570 0.222
1.000 0.579 0.237
1.000 0.592 0.256
1.000 0.610 0.281
1.000 0.636 0.317
1.000 0.704 0.436
0.177 0.398 0.118
0.195 0.399 0.126
0.212 0.400 0.134
0.224 0.405 0.143
0.233 0.411 0.153
0.244 0.419 0.164
0.254 0.428 0.176
0.266 0.438 0.187
0.278 0.449 0.199
0.290 0.462 0.211
0.302 0.476 0.222
0.314 0.492 0.233
0.325 0.509 0.242
0.336 0.528 0.250
0.369 0.542 0.232
0.412 0.553 0.206
0.457 0.563 0.181
0.504 0.571 0.159
0.553 0.578 0.140
0.603 0.583 0.125
0.652 0.588 0.114
0.700 0.591 0.111
0.748 0.593 0.112
0.793 0.594 0.118
0.836 0.594 0.134
0.877 0.593 0.156
0.915 0.590 0.183
0.949 0.589 0.207
0.975 0.594 0.217
0.999 0.601 0.230
1.000 0.609 0.244
1.000 0.621 0.263
1.000 0.637 0.288
1.000 0.661 0.323
1.000 0.725 0.443
0.199 0.427 0.141
0.216 0.428 0.148
0.232 0.429 0.156
0.245 0.432 0.165
0.254 0.438 0.174
0.264 0.445 0.185
0.274 0.453 0.196
0.285 0.463 0.207
0.296 0.473 0.219
0.308 0.485 0.230
0.320 0.498 0.242
0.331 0.513 0.252
0.343 0.528 0.262
0.353 0.545 0.271
0.364 0.563 0.279
0.394 0.578 0.264
0.435 0.589 0.239
0.480 0.599 0.215
0.528 0.607 0.194
0.577 0.614 0.173
0.627 0.620 0.158
0.677 0.625 0.145
0.725 0.629 0.139
0.773 0.631 0.139
0.818 0.633 0.144
0.861 0.633 0.159
0.902 0.632 0.180
0.942 0.629 0.201
0.978 0.625 0.226
0.999 0.631 0.237
1.000 0.639 0.252
1.000 0.649 0.270
1.000 0.664 0.294
1.000 0.686 0.329
1.000 0.746 0.451
0.220 0.456 0.164
0.236 0.457 0.171
0.251 0.458 0.178
0.266 0.459 0.186
0.274 0.465 0.195
0.283 0.472 0.205
0.293 0.479 0.215
0.303 0.488 0.226
0.314 0.497 0.237
0.326 0.509 0.249
0.337 0.521 0.260
0.349 0.534 0.271
0.360 0.548 0.281
0.371 0.564 0.291
0.381 0.580 0.299
0.391 0.597 0.307
0.418 0.612 0.295
0.460 0.623 0.271
0.505 0.633 0.247
0.552 0.642 0.225
0.602 0.649 0.205
0.652 0.655 0.189
0.702 0.660 0.175
0.751 0.664 0.167
0.799 0.667 0.166
0.845 0.669 0.171
0.889 0.670 0.179
0.931 0.669 0.195
0.971 0.665 0.219
1.000 0.662 0.246
1.000 0.669 0.259
1.000 0.678 0.277
1.000 0.691 0.301
1.000 0.711 0.335
1.000 0.766 0.458
0.241 0.484 0.187
0.256 0.485 0.193
0.270 0.486 0.199
0.285 0.487 0.207
0.294 0.491 0.215
0.303 0.497 0.224
0.311 0.505 0.234
0.322 0.513 0.245
0.332 0.522 0.256
0.343 0.532 0.267
0.354 0.543 0.278
0.366 0.555 0.289
0.377 0.569 0.299
0.388 0.583 0.309
0.398 0.598 0.318
0.408 0.614 0.327
0.419 0.630 0.334
0.443 0.645 0.325
0.484 0.656 0.301
0.530 0.666 0.277
0.578 0.675 0.255
0.628 0.682 0.235
0.679 0.689 0.217
0.729 0.694 0.204
0.779 0.698 0.194
0.828 0.702 0.188
0.875 0.704 0.187
0.919 0.705 0.194
0.961 0.704 0.212
0.999 0.700 0.240
1.000 0.698 0.267
1.000 0.706 0.284
1.000 0.718 0.308
1.000 0.736 0.342
1.000 0.786 0.466
0.262 0.512 0.209
0.275 0.513 0.214
0.289 0.514 0.220
0.303 0.514 0.227
0.313 0.518 0.235
0.321 0.523 0.244
0.330 0.530 0.253
0.339 0.538 0.263
0.350 0.546 0.273
0.360 0.556 0.284
0.371 0.566 0.295
0.382 0.577 0.306
0.393 0.589 0.317
0.404 0.602 0.327
0.415 0.616 0.336
0.425 0.631 0.345
0.436 0.646 0.354
0.446 0.662 0.362
0.469 0.677 0.354
0.510 0.688 0.330
0.556 0.698 0.306
0.604 0.707 0.283
0.655 0.714 0.263
0.707 0.721 0.244
0.759 0.727 0.226
0.810 0.732 0.211
0.859 0.735 0.204
0.907 0.738 0.202
0.951 0.738 0.211
0.992 0.737 0.232
1.000 0.731 0.266
1.000 0.734 0.292
1.000 0.744 0.315
1.000 0.760 0.348
1.000 0.805 0.473
0.282 0.540 0.230
0.295 0.541 0.236
0.307 0.541 0.241
0.321 0.542 0.247
0.333 0.544 0.254
0.340 0.549 0.263
0.348 0.556 0.272
0.357 0.563 0.281
0.367 0.571 0.291
0.377 0.579 0.302
0.388 0.589 0.313
0.399 0.600 0.324
0.410 0.611 0.334
0.421 0.622 0.344
0.432 0.635 0.354
0.442 0.648 0.363
0.452 0.662 0.372
0.463 0.677 0.381
0.473 0.693 0.389
0.495 0.707 0.383
0.536 0.718 0.358
0.583 0.728 0.334
0.632 0.737 0.309
0.685 0.745 0.286
0.738 0.753 0.263
0.791 0.759 0.244
0.843 0.764 0.227
0.893 0.768 0.219
0.940 0.770 0.218
0.984 0.770 0.230
1.000 0.768 0.258
1.000 0.761 0.300
1.000 0.770 0.322
1.000 0.784 0.355
1.000 0.824 0.482
0.302 0.568 0.252
0.314 0.569 0.257
0.326 0.569 0.262
0.338 0.570 0.268
0.352 0.571 0.274
0.359 0.575 0.282
0.367 0.581 0.290
0.376 0.588 0.300
0.385 0.595 0.309
0.395 0.603 0.320
0.405 0.612 0.330
0.416 0.622 0.341
0.427 0.632 0.352
0.437 0.643 0.362
0.448 0.654 0.372
0.459 0.666 0.381
0.469 0.679 0.391
0.479 0.693 0.400
0.490 0.707 0.408
0.500 0.722 0.416
0.521 0.737 0.411
0.564 0.748 0.385
0.611 0.758 0.358
0.663 0.768 0.331
0.717 0.776 0.305
0.771 0.784 0.280
0.826 0.790 0.259
0.878 0.795 0.241
0.928 0.799 0.234
0.975 0.801 0.234
1.000 0.800 0.253
1.000 0.795 0.291
1.000 0.795 0.330
1.000 0.807 0.363
1.000 0.843 0.491
0.322 0.596 0.273
0.333 0.597 0.278
0.345 0.597 0.283
0.356 0.598 0.288
0.369 0.598 0.294
0.378 0.602 0.301
0.386 0.607 0.309
0.394 0.613 0.318
0.403 0.620 0.328
0.413 0.627 0.338
0.423 0.636 0.348
0.433 0.645 0.359
0.444 0.654 0.369
0.455 0.664 0.379
0.465 0.674 0.390
0.475 0.685 0.399
0.486 0.697 0.409
0.496 0.709 0.418
0.507 0.723 0.427
0.517 0.737 0.435
0.527 0.752 0.442
0.548 0.767 0.437
0.592 0.778 0.409
0.642 0.788 0.380
0.695 0.798 0.351
0.751 0.806 0.323
0.807 0.814 0.296
0.862 0.820 0.273
0.915 0.825 0.255
0.964 0.829 0.248
1.000 0.830 0.254
1.000 0.828 0.284
1.000 0.820 0.339
1.000 0.830 0.371
1.000 0.861 0.500
0.342 0.624 0.295
0.353 0.625 0.299
0.364 0.625 0.304
0.375 0.625 0.309
0.387 0.626 0.314
0.398 0.628 0.321
0.405 0.633 0.329
0.413 0.638 0.337
0.422 0.645 0.347
0.431 0.652 0.356
0.441 0.659 0.366
0.451 0.668 0.377
0.462 0.676 0.387
0.472 0.685 0.397
0.482 0.695 0.408
0.493 0.705 0.417
0.503 0.716 0.427
0.513 0.727 0.435
0.523 0.739 0.444
0.533 0.753 0.453
0.544 0.767 0.461
0.554 0.782 0.469
0.576 0.796 0.464
0.622 0.808 0.433
0.674 0.818 0.402
0.729 0.827 0.371
0.787 0.835 0.340
0.844 0.843 0.311
0.900 0.849 0.286
0.953 0.854 0.269
0.999 0.857 0.264
1.000 0.857 0.281
1.000 0.851 0.329
1.000 0.852 0.380
1.000 0.880 0.511
0.363 0.652 0.317
0.373 0.653 0.321
0.383 0.653 0.325
0.394 0.653 0.330
0.406 0.654 0.336
0.418 0.655 0.342
0.425 0.659 0.349
0.433 0.664 0.357
0.442 0.670 0.366
0.450 0.677 0.375
0.460 0.683 0.385
0.470 0.691 0.396
0.480 0.699 0.405
0.490 0.707 0.415
0.499 0.716 0.425
0.509 0.726 0.434
0.520 0.736 0.444
0.530 0.746 0.453
0.540 0.757 0.462
0.550 0.769 0.471
0.561 0.782 0.480
0.571 0.796 0.488
0.583 0.811 0.496
0.605 0.825 0.491
0.654 0.836 0.458
0.708 0.846 0.424
0.766 0.856 0.389
0.825 0.864 0.355
0.884 0.871 0.324
0.940 0.877 0.296
0.991 0.881 0.282
1.000 0.883 0.283
1.000 0.881 0.321
1.000 0.874 0.389
1.000 0.898 0.522
0.385 0.681 0.340
0.394 0.681 0.344
0.404 0.681 0.348
0.414 0.682 0.352
0.425 0.682 0.358
0.437 0.683 0.363
0.446 0.685 0.370
0.454 0.690 0.378
0.462 0.696 0.386
0.470 0.702 0.395
0.479 0.708 0.404
0.488 0.715 0.413
0.497 0.723 0.423
0.507 0.731 0.432
0.517 0.739 0.442
0.527 0.747 0.452
0.537 0.756 0.461
0.547 0.766 0.471
0.557 0.776 0.480
0.568 0.787 0.489
0.578 0.799 0.499
0.589 0.811 0.508
0.600 0.825 0.517
0.612 0.839 0.525
0.637 0.853 0.518
0.688 0.864 0.483
0.745 0.874 0.445
0.805 0.883 0.407
0.866 0.892 0.368
0.925 0.899 0.335
0.980 0.904 0.307
1.000 0.907 0.298
1.000 0.907 0.318
1.000 0.899 0.391
1.000 0.916 0.534
0.406 0.710 0.363
0.415 0.710 0.366
0.424 0.710 0.370
0.434 0.711 0.374
0.444 0.711 0.379
0.456 0.712 0.384
0.467 0.713 0.390
0.474 0.718 0.397
0.482 0.723 0.405
0.490 0.728 0.414
0.498 0.734 0.423
0.507 0.741 0.432
0.517 0.747 0.441
0.526 0.755 0.451
0.536 0.762 0.461
0.546 0.770 0.470
0.556 0.778 0.480
0.566 0.787 0.490
0.576 0.796 0.499
0.586 0.806 0.509
0.597 0.816 0.518
0.608 0.827 0.528
0.619 0.839 0.537
0.630 0.853 0.547
0.642 0.867 0.556
0.670 0.880 0.546
0.724 0.891 0.508
0.784 0.901 0.466
0.847 0.910 0.423
0.909 0.918 0.380
0.968 0.925 0.344
1.000 0.930 0.320
1.000 0.931 0.321
1.000 0.927 0.380
1.000 0.933 0.548
0.428 0.740 0.385
0.436 0.740 0.389
0.445 0.741 0.392
0.454 0.741 0.396
0.464 0.742 0.401
0.476 0.742 0.406
0.488 0.743 0.411
0.496 0.746 0.418
0.503 0.751 0.426
0.511 0.756 0.434
0.519 0.761 0.443
0.528 0.767 0.452
0.537 0.773 0.462
0.547 0.779 0.471
0.556 0.786 0.481
0.566 0.793 0.490
0.575 0.801 0.500
0.585 0.808 0.510
0.595 0.817 0.519
0.606 0.825 0.529
0.616 0.835 0.539
0.627 0.845 0.549
0.638 0.855 0.559
0.649 0.867 0.568
0.661 0.880 0.578
0.674 0.894 0.588
0.705 0.907 0.575
0.763 0.918 0.532
0.826 0.928 0.486
0.891 0.936 0.437
0.953 0.944 0.390
1.000 0.950 0.350
1.000 0.953 0.337
1.000 0.952 0.374
1.000 0.951 0.563
0.451 0.771 0.410
0.459 0.772 0.413
0.467 0.772 0.417
0.477 0.772 0.420
0.486 0.773 0.425
0.497 0.773 0.429
0.509 0.774 0.435
0.519 0.775 0.441
0.527 0.779 0.449
0.534 0.784 0.457
0.542 0.789 0.465
0.551 0.794 0.474
0.560 0.800 0.483
0.569 0.805 0.493
0.578 0.811 0.502
0.587 0.818 0.512
0.597 0.824 0.521
0.606 0.831 0.531
0.616 0.838 0.541
0.626 0.846 0.551
0.637 0.854 0.561
0.647 0.863 0.571
0.658 0.872 0.581
0.670 0.883 0.591
0.682 0.894 0.602
