LUTFilters/Resources/PRESET_Kodak_WaterSport.cube
#Created by: Pixelmator Pro
#Color profile: "sRGB IEC61966-2.1"
TITLE "PRESET_Kodak_WaterSport"
#Data domain
DOMAIN_MIN 0.000 0.000 0.000
DOMAIN_MAX 1.000 1.000 1.000
#LUT size
LUT_3D_SIZE 35
0.066 0.125 0.003
0.066 0.125 0.003
0.066 0.125 0.003
0.066 0.125 0.003
0.066 0.125 0.003
0.066 0.125 0.003
0.066 0.125 0.003
0.066 0.125 0.003
0.066 0.125 0.003
0.066 0.125 0.003
0.075 0.125 0.003
0.138 0.125 0.003
0.195 0.125 0.003
0.245 0.125 0.003
0.290 0.125 0.003
0.332 0.125 0.003
0.372 0.125 0.004
0.411 0.125 0.004
0.452 0.125 0.004
0.493 0.125 0.005
0.535 0.125 0.005
0.579 0.125 0.006
0.625 0.125 0.007
0.671 0.125 0.007
0.719 0.125 0.008
0.767 0.125 0.009
0.815 0.125 0.011
0.862 0.125 0.012
0.908 0.125 0.014
0.954 0.125 0.017
0.997 0.125 0.020
1.000 0.125 0.025
1.000 0.125 0.032
1.000 0.125 0.042
1.000 0.239 0.159
0.066 0.125 0.003
0.066 0.125 0.003
0.066 0.125 0.003
0.066 0.125 0.003
0.066 0.125 0.003
0.066 0.125 0.003
0.066 0.125 0.003
0.066 0.125 0.003
0.066 0.125 0.003
0.075 0.125 0.003
0.128 0.128 0.003
0.179 0.131 0.003
0.227 0.133 0.003
0.271 0.135 0.003
0.311 0.136 0.003
0.350 0.137 0.003
0.388 0.138 0.003
0.427 0.139 0.003
0.466 0.140 0.003
0.507 0.140 0.003
0.549 0.141 0.003
0.592 0.141 0.003
0.637 0.141 0.003
0.683 0.142 0.003
0.729 0.142 0.003
0.776 0.142 0.003
0.823 0.141 0.003
0.870 0.141 0.003
0.915 0.140 0.003
0.959 0.139 0.003
0.999 0.137 0.003
1.000 0.134 0.003
1.000 0.129 0.003
1.000 0.125 0.006
1.000 0.248 0.152
0.066 0.125 0.003
0.066 0.125 0.003
0.066 0.125 0.003
0.066 0.125 0.003
0.066 0.125 0.003
0.066 0.125 0.003
0.066 0.125 0.003
0.066 0.125 0.003
0.083 0.127 0.003
0.125 0.133 0.003
0.169 0.138 0.003
0.213 0.142 0.003
0.254 0.145 0.003
0.293 0.148 0.003
0.330 0.151 0.003
0.367 0.153 0.003
0.403 0.155 0.003
0.441 0.157 0.003
0.479 0.158 0.003
0.519 0.160 0.003
0.560 0.161 0.003
0.602 0.162 0.003
0.646 0.163 0.003
0.691 0.164 0.003
0.737 0.165 0.003
0.782 0.166 0.003
0.828 0.167 0.003
0.874 0.167 0.003
0.919 0.167 0.003
0.962 0.167 0.003
0.999 0.166 0.003
1.000 0.165 0.003
1.000 0.162 0.003
1.000 0.156 0.003
1.000 0.261 0.150
0.066 0.125 0.003
0.066 0.125 0.003
0.066 0.125 0.003
0.066 0.125 0.003
0.066 0.125 0.003
0.066 0.125 0.003
0.066 0.125 0.003
0.091 0.132 0.003
0.128 0.141 0.003
0.166 0.148 0.003
0.204 0.153 0.003
0.241 0.158 0.003
0.278 0.162 0.003
0.313 0.166 0.003
0.348 0.169 0.003
0.383 0.172 0.003
0.419 0.175 0.003
0.455 0.177 0.003
0.492 0.180 0.003
0.531 0.182 0.003
0.571 0.184 0.003
0.613 0.186 0.003
0.656 0.187 0.003
0.699 0.189 0.003
0.744 0.190 0.003
0.789 0.192 0.003
0.834 0.193 0.003
0.878 0.194 0.003
0.922 0.195 0.003
0.964 0.196 0.003
1.000 0.197 0.003
1.000 0.196 0.003
1.000 0.195 0.003
1.000 0.191 0.003
1.000 0.279 0.153
0.066 0.125 0.003
0.066 0.125 0.003
0.066 0.125 0.003
0.066 0.125 0.003
0.066 0.125 0.003
0.071 0.128 0.003
0.093 0.139 0.003
0.121 0.149 0.003
0.156 0.158 0.003
0.193 0.166 0.003
0.232 0.174 0.003
0.267 0.179 0.003
0.300 0.184 0.003
0.333 0.188 0.003
0.366 0.191 0.003
0.400 0.195 0.003
0.434 0.198 0.003
0.469 0.201 0.003
0.506 0.204 0.003
0.544 0.206 0.003
0.583 0.209 0.003
0.624 0.211 0.003
0.666 0.213 0.003
0.708 0.215 0.003
0.752 0.217 0.003
0.796 0.219 0.003
0.839 0.221 0.003
0.883 0.223 0.003
0.925 0.225 0.003
0.967 0.226 0.003
1.000 0.227 0.003
1.000 0.228 0.003
1.000 0.228 0.003
1.000 0.226 0.003
1.000 0.299 0.157
0.066 0.125 0.003
0.066 0.125 0.003
0.066 0.125 0.003
0.066 0.125 0.003
0.077 0.136 0.003
0.095 0.149 0.003
0.117 0.159 0.003
0.145 0.170 0.003
0.177 0.179 0.003
0.212 0.188 0.003
0.249 0.196 0.003
0.285 0.203 0.003
0.321 0.209 0.003
0.353 0.214 0.003
0.385 0.218 0.003
0.417 0.221 0.003
0.450 0.224 0.003
0.485 0.227 0.003
0.521 0.230 0.003
0.558 0.233 0.003
0.596 0.236 0.003
0.636 0.238 0.003
0.677 0.241 0.003
0.718 0.243 0.003
0.760 0.246 0.003
0.803 0.248 0.003
0.846 0.250 0.003
0.888 0.252 0.003
0.929 0.255 0.003
0.970 0.257 0.003
1.000 0.259 0.003
1.000 0.261 0.003
1.000 0.262 0.003
1.000 0.260 0.003
1.000 0.321 0.160
0.066 0.125 0.003
0.066 0.128 0.003
0.071 0.138 0.003
0.080 0.149 0.003
0.093 0.160 0.003
0.111 0.172 0.003
0.136 0.184 0.003
0.163 0.194 0.003
0.195 0.203 0.003
0.228 0.212 0.003
0.263 0.221 0.003
0.298 0.228 0.003
0.332 0.235 0.003
0.367 0.241 0.003
0.402 0.247 0.003
0.435 0.250 0.003
0.467 0.254 0.003
0.501 0.256 0.003
0.536 0.259 0.003
0.572 0.262 0.003
0.610 0.265 0.003
0.648 0.267 0.003
0.688 0.270 0.003
0.729 0.273 0.003
0.770 0.275 0.003
0.811 0.278 0.003
0.852 0.280 0.003
0.893 0.283 0.003
0.934 0.286 0.003
0.973 0.288 0.003
1.000 0.291 0.003
1.000 0.293 0.003
1.000 0.295 0.003
1.000 0.295 0.003
1.000 0.345 0.164
0.068 0.150 0.003
0.073 0.159 0.003
0.081 0.168 0.003
0.092 0.178 0.003
0.106 0.188 0.003
0.125 0.199 0.003
0.150 0.210 0.003
0.179 0.221 0.003
0.209 0.231 0.003
0.242 0.239 0.003
0.275 0.248 0.003
0.309 0.255 0.003
0.343 0.262 0.003
0.377 0.269 0.003
0.412 0.274 0.003
0.447 0.280 0.003
0.484 0.285 0.003
0.518 0.288 0.003
0.553 0.291 0.003
0.588 0.293 0.003
0.624 0.296 0.003
0.662 0.298 0.003
0.700 0.301 0.003
0.740 0.304 0.003
0.779 0.306 0.003
0.819 0.309 0.003
0.859 0.311 0.003
0.899 0.314 0.003
0.938 0.317 0.003
0.977 0.320 0.003
1.000 0.323 0.003
1.000 0.326 0.003
1.000 0.328 0.003
1.000 0.328 0.003
1.000 0.371 0.169
0.072 0.185 0.003
0.079 0.192 0.003
0.089 0.200 0.003
0.102 0.208 0.003
0.118 0.218 0.003
0.137 0.227 0.003
0.162 0.238 0.003
0.190 0.249 0.003
0.222 0.260 0.003
0.254 0.268 0.003
0.286 0.276 0.003
0.319 0.283 0.003
0.352 0.290 0.003
0.386 0.297 0.003
0.421 0.303 0.003
0.456 0.308 0.003
0.492 0.314 0.003
0.530 0.318 0.003
0.568 0.323 0.003
0.604 0.326 0.003
0.640 0.328 0.003
0.676 0.331 0.003
0.713 0.333 0.003
0.751 0.335 0.003
0.789 0.338 0.003
0.828 0.341 0.003
0.867 0.343 0.003
0.905 0.346 0.003
0.943 0.349 0.003
0.981 0.352 0.003
1.000 0.355 0.003
1.000 0.359 0.003
1.000 0.361 0.003
1.000 0.362 0.003
1.000 0.399 0.174
0.076 0.220 0.003
0.085 0.226 0.003
0.097 0.233 0.003
0.111 0.241 0.003
0.128 0.249 0.003
0.148 0.257 0.003
0.172 0.267 0.003
0.200 0.277 0.003
0.231 0.287 0.003
0.264 0.297 0.003
0.296 0.305 0.003
0.328 0.312 0.003
0.361 0.319 0.003
0.395 0.325 0.003
0.429 0.332 0.003
0.464 0.337 0.003
0.500 0.342 0.003
0.537 0.348 0.003
0.576 0.352 0.003
0.615 0.357 0.003
0.654 0.361 0.003
0.691 0.364 0.003
0.727 0.366 0.003
0.763 0.368 0.003
0.800 0.371 0.003
0.837 0.373 0.003
0.875 0.376 0.003
0.912 0.378 0.003
0.948 0.381 0.003
0.985 0.384 0.003
1.000 0.388 0.003
1.000 0.392 0.003
1.000 0.394 0.003
1.000 0.396 0.003
1.000 0.428 0.180
0.080 0.256 0.003
0.091 0.260 0.003
0.104 0.266 0.003
0.119 0.273 0.003
0.137 0.280 0.003
0.158 0.288 0.003
0.182 0.296 0.003
0.210 0.305 0.003
0.240 0.315 0.003
0.272 0.324 0.003
0.305 0.334 0.003
0.337 0.341 0.003
0.369 0.348 0.003
0.403 0.354 0.003
0.437 0.360 0.003
0.471 0.366 0.003
0.508 0.371 0.003
0.545 0.377 0.003
0.582 0.381 0.003
0.621 0.386 0.003
0.661 0.391 0.003
0.700 0.395 0.003
0.740 0.400 0.003
0.776 0.402 0.003
0.811 0.404 0.003
0.847 0.406 0.003
0.883 0.409 0.003
0.918 0.411 0.003
0.954 0.414 0.003
0.989 0.417 0.003
1.000 0.421 0.003
1.000 0.425 0.003
1.000 0.428 0.003
1.000 0.429 0.003
1.000 0.458 0.186
0.086 0.289 0.005
0.100 0.292 0.007
0.113 0.298 0.005
0.128 0.305 0.003
0.146 0.311 0.003
0.167 0.318 0.003
0.192 0.325 0.003
0.219 0.334 0.003
0.248 0.342 0.003
0.279 0.351 0.003
0.312 0.361 0.003
0.345 0.370 0.003
0.377 0.376 0.003
0.410 0.383 0.003
0.444 0.389 0.003
0.479 0.394 0.003
0.514 0.400 0.003
0.551 0.405 0.003
0.589 0.411 0.003
0.627 0.416 0.003
0.666 0.421 0.003
0.706 0.425 0.003
0.745 0.430 0.003
0.785 0.435 0.003
0.822 0.438 0.003
0.856 0.441 0.003
0.891 0.443 0.003
0.925 0.445 0.003
0.959 0.448 0.003
0.993 0.451 0.003
1.000 0.455 0.003
1.000 0.459 0.003
1.000 0.461 0.003
1.000 0.463 0.003
1.000 0.489 0.193
0.098 0.320 0.014
0.113 0.322 0.017
0.126 0.328 0.015
0.141 0.334 0.012
0.157 0.340 0.009
0.177 0.348 0.004
0.201 0.355 0.003
0.227 0.362 0.003
0.256 0.370 0.003
0.286 0.379 0.003
0.318 0.388 0.003
0.351 0.396 0.003
0.385 0.405 0.003
0.418 0.411 0.003
0.451 0.417 0.003
0.486 0.423 0.003
0.521 0.429 0.003
0.558 0.434 0.003
0.595 0.440 0.003
0.633 0.445 0.003
0.672 0.450 0.003
0.711 0.455 0.003
0.750 0.460 0.003
0.789 0.465 0.003
0.827 0.470 0.003
0.865 0.475 0.003
0.899 0.478 0.003
0.932 0.480 0.003
0.965 0.482 0.003
0.997 0.486 0.003
1.000 0.489 0.003
1.000 0.493 0.003
1.000 0.495 0.003
1.000 0.497 0.003
1.000 0.520 0.200
0.111 0.350 0.024
0.127 0.351 0.028
0.140 0.356 0.026
0.154 0.362 0.023
0.171 0.368 0.019
0.189 0.375 0.014
0.210 0.383 0.007
0.236 0.391 0.003
0.264 0.399 0.003
0.294 0.407 0.003
0.325 0.415 0.003
0.357 0.423 0.003
0.390 0.432 0.003
0.425 0.440 0.003
0.458 0.446 0.003
0.492 0.452 0.003
0.528 0.458 0.003
0.564 0.464 0.003
0.601 0.469 0.003
0.639 0.475 0.003
0.677 0.480 0.003
0.716 0.485 0.003
0.754 0.491 0.003
0.793 0.496 0.003
0.831 0.501 0.003
0.868 0.507 0.003
0.905 0.512 0.003
0.938 0.515 0.003
0.970 0.518 0.003
0.999 0.521 0.003
1.000 0.524 0.003
1.000 0.527 0.003
1.000 0.530 0.003
1.000 0.531 0.003
1.000 0.552 0.208
0.124 0.379 0.034
0.141 0.380 0.039
0.154 0.385 0.037
0.168 0.390 0.034
0.184 0.396 0.031
0.202 0.403 0.026
0.222 0.411 0.018
0.245 0.419 0.009
0.272 0.427 0.003
0.301 0.435 0.003
0.332 0.443 0.003
0.363 0.451 0.003
0.396 0.459 0.003
0.430 0.467 0.003
0.465 0.475 0.003
0.499 0.481 0.003
0.534 0.487 0.003
0.570 0.493 0.003
0.607 0.499 0.003
0.644 0.505 0.003
0.682 0.510 0.003
0.720 0.516 0.003
0.759 0.521 0.003
0.797 0.527 0.003
0.834 0.533 0.003
0.871 0.538 0.003
0.908 0.544 0.003
0.943 0.550 0.003
0.976 0.554 0.003
1.000 0.557 0.003
1.000 0.560 0.003
1.000 0.562 0.003
1.000 0.564 0.003
1.000 0.565 0.003
1.000 0.584 0.215
0.138 0.408 0.045
0.155 0.409 0.051
0.168 0.414 0.049
0.182 0.419 0.046
0.198 0.425 0.042
0.215 0.431 0.037
0.234 0.438 0.031
0.256 0.447 0.021
0.281 0.456 0.009
0.309 0.464 0.003
0.339 0.472 0.003
0.370 0.480 0.003
0.402 0.488 0.003
0.436 0.496 0.003
0.470 0.504 0.003
0.506 0.511 0.003
0.541 0.517 0.003
0.576 0.523 0.003
0.613 0.529 0.003
0.650 0.535 0.003
0.687 0.541 0.003
0.725 0.546 0.003
0.763 0.552 0.003
0.800 0.558 0.003
0.838 0.564 0.003
0.874 0.570 0.003
0.910 0.576 0.003
0.945 0.582 0.003
0.980 0.589 0.003
1.000 0.593 0.003
1.000 0.595 0.003
1.000 0.597 0.003
1.000 0.599 0.003
1.000 0.599 0.003
1.000 0.617 0.223
0.152 0.438 0.056
0.170 0.439 0.062
0.183 0.443 0.061
0.196 0.448 0.058
0.211 0.454 0.055
0.228 0.460 0.050
0.247 0.467 0.043
0.268 0.475 0.034
0.291 0.484 0.022
0.317 0.494 0.006
0.346 0.502 0.003
0.377 0.510 0.003
0.409 0.518 0.003
0.442 0.525 0.003
0.476 0.533 0.003
0.511 0.540 0.003
0.547 0.548 0.003
0.582 0.554 0.003
0.618 0.560 0.003
0.655 0.566 0.003
0.692 0.571 0.003
0.729 0.577 0.003
0.767 0.583 0.003
0.804 0.589 0.003
0.841 0.595 0.003
0.877 0.601 0.003
0.913 0.608 0.003
0.948 0.615 0.003
0.982 0.622 0.003
1.000 0.629 0.003
1.000 0.631 0.003
1.000 0.632 0.003
1.000 0.633 0.003
1.000 0.633 0.003
1.000 0.649 0.232
0.167 0.470 0.067
0.184 0.470 0.074
0.198 0.473 0.074
0.211 0.478 0.071
0.225 0.484 0.067
0.241 0.490 0.062
0.259 0.497 0.056
0.280 0.505 0.048
0.302 0.514 0.036
0.327 0.524 0.021
0.354 0.534 0.003
0.384 0.541 0.003
0.416 0.549 0.003
0.448 0.556 0.003
0.482 0.563 0.003
0.517 0.571 0.003
0.552 0.578 0.003
0.589 0.585 0.003
0.624 0.591 0.003
0.660 0.597 0.003
0.697 0.603 0.003
0.734 0.609 0.003
0.771 0.615 0.003
0.807 0.621 0.003
0.844 0.627 0.003
0.880 0.633 0.003
0.915 0.640 0.003
0.950 0.647 0.003
0.983 0.654 0.003
1.000 0.661 0.003
1.000 0.667 0.003
1.000 0.667 0.003
1.000 0.668 0.003
1.000 0.667 0.003
1.000 0.680 0.241
0.181 0.502 0.079
0.198 0.502 0.085
0.213 0.505 0.087
0.225 0.510 0.084
0.240 0.515 0.081
0.255 0.521 0.076
0.272 0.528 0.069
0.292 0.536 0.061
0.313 0.545 0.050
0.337 0.554 0.036
0.363 0.565 0.017
0.392 0.574 0.003
0.423 0.581 0.003
0.456 0.588 0.003
0.489 0.595 0.003
0.523 0.602 0.003
0.558 0.609 0.003
0.594 0.616 0.003
0.630 0.623 0.003
0.666 0.629 0.003
0.702 0.634 0.003
0.738 0.640 0.003
0.775 0.646 0.003
0.811 0.652 0.003
0.847 0.658 0.003
0.883 0.665 0.003
0.918 0.672 0.003
0.952 0.679 0.003
0.984 0.685 0.003
1.000 0.692 0.003
1.000 0.699 0.003
1.000 0.702 0.003
1.000 0.702 0.003
1.000 0.700 0.003
1.000 0.712 0.250
0.197 0.536 0.091
0.213 0.536 0.098
0.228 0.538 0.100
0.240 0.543 0.098
0.254 0.548 0.094
0.269 0.554 0.089
0.286 0.561 0.083
0.304 0.569 0.075
0.325 0.577 0.065
0.348 0.587 0.051
0.374 0.596 0.034
0.401 0.607 0.012
0.432 0.615 0.003
0.463 0.622 0.003
0.496 0.628 0.003
0.530 0.635 0.003
0.565 0.641 0.003
0.600 0.648 0.003
0.636 0.654 0.003
0.672 0.661 0.003
0.708 0.666 0.003
0.743 0.672 0.003
0.779 0.678 0.003
0.815 0.684 0.003
0.851 0.690 0.003
0.886 0.697 0.003
0.920 0.703 0.003
0.953 0.710 0.003
0.986 0.716 0.003
1.000 0.723 0.003
1.000 0.730 0.003
1.000 0.736 0.003
1.000 0.736 0.003
1.000 0.733 0.003
1.000 0.743 0.260
0.212 0.572 0.104
0.229 0.572 0.110
0.244 0.574 0.114
0.256 0.578 0.112
0.269 0.583 0.108
0.283 0.589 0.104
0.300 0.596 0.098
0.318 0.603 0.090
0.338 0.611 0.080
0.360 0.620 0.067
0.385 0.630 0.051
0.411 0.640 0.030
0.440 0.650 0.005
0.472 0.657 0.003
0.505 0.663 0.003
0.538 0.669 0.003
0.572 0.675 0.003
0.607 0.681 0.003
0.642 0.687 0.003
0.677 0.693 0.003
0.713 0.699 0.003
0.748 0.704 0.003
0.784 0.710 0.003
0.819 0.716 0.003
0.854 0.722 0.003
0.888 0.728 0.003
0.922 0.734 0.003
0.955 0.740 0.003
0.987 0.747 0.003
1.000 0.753 0.003
1.000 0.760 0.003
1.000 0.766 0.003
1.000 0.769 0.003
1.000 0.766 0.003
1.000 0.773 0.270
0.228 0.609 0.117
0.244 0.610 0.123
0.260 0.611 0.129
0.272 0.615 0.126
0.284 0.620 0.123
0.298 0.625 0.118
0.314 0.632 0.112
0.332 0.639 0.105
0.351 0.646 0.096
0.373 0.655 0.083
0.397 0.664 0.068
0.423 0.674 0.048
0.451 0.684 0.023
0.481 0.693 0.003
0.514 0.699 0.003
0.547 0.704 0.003
0.580 0.709 0.003
0.614 0.715 0.003
0.649 0.720 0.003
0.684 0.726 0.003
0.719 0.732 0.003
0.754 0.737 0.003
0.789 0.743 0.003
0.823 0.748 0.003
0.857 0.754 0.003
0.891 0.759 0.003
0.924 0.765 0.003
0.956 0.771 0.003
0.988 0.777 0.003
1.000 0.783 0.003
1.000 0.789 0.003
1.000 0.795 0.003
1.000 0.801 0.003
1.000 0.798 0.003
1.000 0.803 0.282
0.245 0.649 0.131
0.261 0.649 0.137
0.276 0.650 0.143
0.288 0.654 0.141
0.300 0.658 0.138
0.314 0.664 0.133
0.329 0.669 0.128
0.346 0.676 0.121
0.366 0.684 0.112
0.387 0.692 0.100
0.410 0.700 0.085
0.435 0.709 0.067
0.463 0.719 0.044
0.492 0.729 0.016
0.524 0.736 0.003
0.556 0.740 0.003
0.590 0.745 0.003
0.623 0.750 0.003
0.657 0.755 0.003
0.692 0.760 0.003
0.726 0.765 0.003
0.760 0.770 0.003
0.794 0.775 0.003
0.828 0.780 0.003
0.861 0.785 0.003
0.894 0.790 0.003
0.926 0.795 0.003
0.958 0.800 0.003
0.988 0.806 0.003
1.000 0.812 0.003
1.000 0.818 0.003
1.000 0.823 0.003
1.000 0.829 0.003
1.000 0.830 0.003
1.000 0.833 0.294
0.263 0.691 0.145
0.278 0.691 0.151
0.293 0.691 0.157
0.305 0.694 0.157
0.317 0.698 0.153
0.331 0.703 0.149
0.346 0.709 0.144
0.362 0.715 0.137
0.381 0.722 0.128
0.402 0.729 0.117
0.425 0.737 0.104
0.449 0.746 0.086
0.476 0.754 0.071
0.505 0.762 0.051
0.536 0.771 0.027
0.568 0.779 0.003
0.601 0.783 0.003
0.634 0.787 0.003
0.667 0.791 0.003
0.700 0.795 0.003
0.734 0.799 0.003
0.767 0.803 0.003
0.799 0.807 0.003
0.832 0.811 0.003
0.864 0.816 0.003
0.896 0.820 0.003
0.928 0.825 0.003
0.959 0.830 0.003
0.989 0.835 0.003
1.000 0.840 0.003
1.000 0.846 0.003
1.000 0.851 0.003
1.000 0.857 0.003
1.000 0.861 0.003
1.000 0.862 0.308
0.281 0.734 0.159
0.296 0.734 0.165
0.311 0.734 0.171
0.324 0.736 0.173
0.336 0.740 0.170
0.349 0.744 0.168
0.365 0.749 0.165
0.382 0.754 0.161
0.401 0.760 0.155
0.422 0.766 0.149
0.444 0.773 0.141
0.469 0.780 0.131
0.495 0.787 0.118
0.522 0.795 0.103
0.551 0.802 0.084
0.581 0.810 0.061
0.613 0.817 0.032
0.646 0.825 0.003
0.678 0.828 0.003
0.710 0.831 0.003
0.742 0.834 0.003
0.774 0.837 0.003
0.805 0.840 0.003
0.837 0.843 0.003
0.868 0.846 0.003
0.899 0.850 0.003
0.930 0.854 0.003
0.960 0.859 0.003
0.990 0.863 0.003
1.000 0.868 0.003
1.000 0.873 0.003
1.000 0.878 0.003
1.000 0.884 0.003
1.000 0.889 0.003
1.000 0.890 0.324
0.309 0.775 0.189
0.323 0.775 0.195
0.338 0.775 0.202
0.352 0.776 0.207
0.364 0.779 0.206
0.377 0.783 0.204
0.392 0.787 0.202
0.408 0.791 0.198
0.426 0.796 0.194
0.446 0.802 0.189
0.467 0.807 0.183
0.490 0.813 0.176
0.515 0.820 0.166
0.541 0.826 0.154
0.568 0.833 0.140
0.596 0.839 0.122
0.626 0.846 0.101
0.656 0.853 0.074
0.688 0.860 0.041
0.721 0.867 0.003
0.752 0.869 0.003
0.783 0.871 0.003
0.813 0.873 0.003
0.843 0.875 0.003
0.873 0.878 0.003
