LUTFilters/Resources/PRESET_Kodak_WaterSport.cube
#Created by: Pixelmator Pro
#Color profile: "sRGB IEC61966-2.1"
TITLE "PRESET_Kodak_WaterSport"
#Data domain
#LUT size
LUT_3D_SIZE 5
DOMAIN_MIN 0.000000 0.000000 0.000000
DOMAIN_MAX 0.823529 0.823529 0.823529
0.066 0.125 0.003
0.066 0.125 0.003
0.290 0.125 0.003
0.579 0.125 0.006
0.908 0.125 0.014
0.068 0.150 0.003
0.179 0.221 0.003
0.412 0.274 0.003
0.662 0.298 0.003
0.938 0.317 0.003
0.124 0.379 0.034
0.245 0.419 0.009
0.465 0.475 0.003
0.720 0.516 0.003
0.976 0.554 0.003
0.228 0.609 0.117
0.332 0.639 0.105
0.514 0.699 0.003
0.754 0.737 0.003
0.988 0.777 0.003
0.421 0.891 0.308
0.506 0.898 0.324
0.635 0.922 0.300
0.804 0.952 0.212
0.995 0.973 0.003
0.066 0.125 0.003
0.067 0.125 0.004
0.320 0.125 0.112
0.589 0.125 0.164
0.910 0.125 0.206
0.066 0.194 0.073
0.192 0.222 0.089
0.497 0.220 0.083
0.777 0.175 0.031
0.998 0.141 0.003
0.090 0.406 0.134
0.250 0.418 0.162
0.496 0.495 0.036
0.799 0.519 0.003
1.000 0.519 0.003
0.195 0.633 0.206
0.338 0.638 0.240
0.513 0.707 0.176
0.788 0.764 0.003
1.000 0.788 0.003
0.402 0.900 0.366
0.509 0.898 0.404
0.639 0.919 0.401
0.802 0.950 0.343
1.000 0.986 0.003
0.066 0.126 0.135
0.161 0.125 0.223
0.359 0.125 0.293
0.596 0.125 0.345
0.913 0.125 0.412
0.066 0.237 0.274
0.183 0.218 0.359
0.448 0.207 0.365
0.737 0.169 0.384
0.992 0.125 0.392
0.066 0.433 0.331
0.167 0.460 0.351
0.475 0.469 0.350
0.834 0.471 0.344
1.000 0.421 0.286
0.076 0.673 0.367
0.283 0.680 0.377
0.515 0.696 0.416
0.801 0.772 0.307
1.000 0.791 0.262
0.375 0.913 0.490
0.483 0.913 0.508
0.650 0.913 0.557
0.800 0.946 0.529
1.000 0.986 0.328
0.066 0.132 0.432
0.205 0.125 0.474
0.399 0.125 0.515
0.628 0.125 0.565
0.913 0.125 0.624
0.066 0.268 0.505
0.173 0.215 0.619
0.450 0.196 0.630
0.725 0.157 0.653
0.981 0.125 0.673
0.066 0.463 0.568
0.150 0.473 0.642
0.456 0.456 0.682
0.772 0.437 0.680
1.000 0.413 0.687
0.066 0.683 0.601
0.098 0.722 0.637
0.435 0.735 0.646
0.770 0.735 0.635
1.000 0.737 0.637
0.286 0.930 0.657
0.421 0.931 0.664
0.620 0.930 0.686
0.802 0.935 0.725
0.999 0.978 0.613
0.066 0.148 0.802
0.236 0.125 0.828
0.447 0.125 0.844
0.672 0.125 0.862
0.933 0.125 0.896
0.066 0.304 0.834
0.131 0.192 0.927
0.457 0.158 0.936
0.734 0.125 0.941
0.980 0.125 0.945
0.066 0.499 0.872
0.081 0.479 0.947
0.434 0.444 0.972
0.753 0.435 0.964
0.994 0.431 0.956
0.066 0.720 0.899
0.116 0.739 0.942
0.438 0.736 0.956
0.741 0.716 0.964
0.995 0.701 0.948
0.066 0.945 0.907
0.231 0.952 0.914
0.468 0.955 0.916
0.721 0.957 0.917
0.980 0.952 0.906
