LUTFilters/Resources/PRESET_Kodak_FunSaver.cube
#Created by: Pixelmator Pro
#Color profile: "sRGB IEC61966-2.1"
TITLE "PRESET_Kodak_FunSaver"
#Data domain
#LUT size
LUT_3D_SIZE 5
DOMAIN_MIN 0.000000 0.000000 0.000000
DOMAIN_MAX 0.823529 0.823529 0.823529
0.066 0.125 0.002
0.066 0.125 0.002
0.302 0.125 0.010
0.604 0.125 0.033
0.923 0.125 0.084
0.070 0.154 0.002
0.195 0.227 0.002
0.446 0.277 0.002
0.706 0.290 0.002
0.970 0.283 0.002
0.185 0.379 0.099
0.286 0.421 0.093
0.499 0.486 0.006
0.762 0.521 0.002
0.998 0.543 0.002
0.329 0.586 0.242
0.399 0.618 0.243
0.547 0.676 0.211
0.779 0.736 0.091
0.997 0.773 0.130
0.538 0.842 0.450
0.590 0.855 0.457
0.684 0.881 0.457
0.810 0.913 0.431
0.987 0.951 0.329
0.066 0.125 0.002
0.068 0.125 0.004
0.339 0.125 0.122
0.618 0.125 0.185
0.926 0.125 0.245
0.066 0.203 0.081
0.219 0.229 0.105
0.484 0.246 0.136
0.737 0.251 0.161
0.977 0.252 0.198
0.179 0.406 0.178
0.298 0.424 0.210
0.506 0.486 0.170
0.783 0.521 0.183
0.999 0.529 0.212
0.325 0.607 0.295
0.412 0.618 0.324
0.551 0.678 0.310
0.781 0.736 0.241
0.999 0.772 0.276
0.536 0.851 0.488
0.601 0.854 0.515
0.690 0.880 0.519
0.812 0.912 0.500
0.987 0.950 0.412
0.071 0.125 0.145
0.182 0.125 0.233
0.387 0.125 0.307
0.630 0.125 0.363
0.930 0.125 0.436
0.069 0.243 0.302
0.235 0.243 0.337
0.453 0.255 0.357
0.703 0.267 0.394
0.967 0.269 0.442
0.129 0.447 0.345
0.277 0.461 0.361
0.507 0.472 0.374
0.782 0.488 0.402
0.999 0.498 0.435
0.301 0.644 0.406
0.409 0.650 0.427
0.561 0.675 0.463
0.779 0.728 0.426
1.000 0.766 0.470
0.532 0.867 0.566
0.602 0.868 0.587
0.704 0.878 0.621
0.814 0.910 0.613
0.986 0.947 0.547
0.092 0.125 0.461
0.243 0.125 0.492
0.436 0.125 0.533
0.662 0.136 0.577
0.926 0.154 0.637
0.107 0.273 0.531
0.267 0.267 0.565
0.472 0.274 0.579
0.700 0.288 0.608
0.949 0.308 0.658
0.167 0.474 0.574
0.305 0.479 0.600
0.511 0.477 0.623
0.743 0.484 0.636
0.976 0.505 0.677
0.239 0.683 0.604
0.357 0.693 0.615
0.545 0.704 0.630
0.775 0.709 0.637
0.997 0.729 0.675
0.507 0.888 0.677
0.586 0.890 0.689
0.710 0.891 0.717
0.821 0.906 0.743
0.982 0.941 0.702
0.162 0.162 0.809
0.311 0.166 0.818
0.497 0.173 0.833
0.705 0.184 0.852
0.935 0.230 0.879
0.181 0.316 0.837
0.322 0.308 0.854
0.518 0.313 0.862
0.728 0.322 0.872
0.945 0.361 0.888
0.231 0.509 0.861
0.351 0.505 0.877
0.545 0.501 0.891
0.754 0.508 0.890
0.957 0.533 0.898
0.313 0.714 0.872
0.414 0.717 0.881
0.580 0.718 0.894
0.775 0.715 0.899
0.966 0.724 0.901
0.444 0.915 0.876
0.521 0.918 0.880
0.652 0.922 0.885
0.803 0.926 0.891
0.977 0.926 0.894
