LUTFilters/Resources/PRESET_Fujifilm_QuickSnap.cube
#Created by: Pixelmator Pro
#Color profile: "sRGB IEC61966-2.1"
TITLE "PRESET_Fujifilm_QuickSnap"
#Data domain
#LUT size
LUT_3D_SIZE 5
DOMAIN_MIN 0.000000 0.000000 0.000000
DOMAIN_MAX 0.823529 0.823529 0.823529
0.066 0.125 0.002
0.066 0.125 0.002
0.432 0.139 0.002
0.728 0.167 0.011
0.955 0.278 0.124
0.076 0.231 0.011
0.163 0.316 0.080
0.481 0.379 0.002
0.767 0.389 0.064
0.963 0.442 0.172
0.220 0.456 0.164
0.303 0.488 0.226
0.381 0.580 0.299
0.652 0.655 0.189
0.971 0.665 0.219
0.363 0.652 0.317
0.433 0.664 0.357
0.499 0.716 0.425
0.571 0.796 0.488
0.884 0.871 0.324
0.537 0.870 0.501
0.600 0.872 0.528
0.657 0.892 0.582
0.718 0.925 0.647
0.801 0.983 0.726
0.066 0.125 0.002
0.169 0.125 0.114
0.450 0.126 0.196
0.714 0.177 0.238
0.947 0.280 0.296
0.066 0.274 0.165
0.245 0.301 0.194
0.520 0.335 0.221
0.760 0.368 0.251
0.961 0.427 0.309
0.200 0.483 0.256
0.336 0.492 0.290
0.427 0.566 0.365
0.700 0.634 0.294
0.976 0.643 0.352
0.356 0.669 0.375
0.442 0.674 0.403
0.532 0.711 0.469
0.604 0.789 0.535
0.905 0.862 0.395
0.532 0.878 0.543
0.593 0.881 0.562
0.678 0.891 0.612
0.739 0.923 0.677
0.818 0.981 0.754
0.066 0.142 0.302
0.226 0.125 0.389
0.455 0.159 0.422
0.685 0.216 0.450
0.931 0.308 0.501
0.066 0.314 0.405
0.248 0.320 0.446
0.485 0.338 0.454
0.714 0.369 0.471
0.945 0.426 0.510
0.139 0.519 0.440
0.290 0.534 0.454
0.503 0.547 0.471
0.741 0.573 0.487
0.965 0.611 0.521
0.314 0.701 0.489
0.415 0.707 0.503
0.572 0.714 0.543
0.657 0.772 0.611
0.941 0.837 0.535
0.513 0.893 0.619
0.580 0.895 0.634
0.689 0.899 0.666
0.773 0.919 0.727
0.847 0.975 0.800
0.066 0.175 0.605
0.251 0.172 0.644
0.468 0.208 0.656
0.686 0.260 0.670
0.910 0.340 0.690
0.093 0.348 0.645
0.264 0.348 0.678
0.486 0.363 0.683
0.701 0.392 0.686
0.922 0.439 0.702
0.176 0.544 0.663
0.311 0.552 0.679
0.499 0.560 0.698
0.714 0.569 0.700
0.940 0.599 0.718
0.261 0.729 0.677
0.360 0.737 0.685
0.520 0.751 0.698
0.727 0.758 0.710
0.955 0.786 0.726
0.456 0.913 0.729
0.535 0.915 0.736
0.664 0.919 0.754
0.801 0.921 0.788
0.882 0.965 0.854
0.121 0.264 0.889
0.288 0.265 0.899
0.488 0.295 0.899
0.689 0.332 0.899
0.911 0.381 0.910
0.167 0.404 0.892
0.303 0.402 0.906
0.497 0.413 0.910
0.700 0.432 0.911
0.918 0.470 0.917
0.236 0.580 0.896
0.342 0.582 0.906
0.507 0.583 0.922
0.712 0.591 0.925
0.927 0.616 0.926
0.292 0.755 0.904
0.384 0.760 0.911
0.534 0.767 0.922
0.719 0.771 0.933
0.933 0.780 0.933
0.380 0.934 0.914
0.454 0.937 0.917
0.582 0.943 0.923
0.740 0.949 0.929
0.938 0.953 0.936
