LUTFilters/Resources/PRESET_Kodak_FunSaver.cube
#Created by: Pixelmator Pro
#Color profile: "sRGB IEC61966-2.1"
TITLE "PRESET_Kodak_FunSaver"
#Data domain
#LUT size
LUT_3D_SIZE 7
DOMAIN_MIN 0.000000 0.000000 0.000000
DOMAIN_MAX 0.882353 0.882353 0.882353
0.066 0.125 0.002
0.066 0.125 0.002
0.069 0.125 0.003
0.346 0.125 0.012
0.559 0.125 0.029
0.789 0.125 0.056
1.000 0.125 0.113
0.066 0.125 0.002
0.099 0.150 0.002
0.269 0.198 0.002
0.448 0.217 0.002
0.641 0.223 0.002
0.846 0.219 0.002
1.000 0.187 0.004
0.104 0.260 0.023
0.181 0.297 0.019
0.331 0.343 0.002
0.508 0.372 0.002
0.707 0.393 0.002
0.883 0.397 0.002
1.000 0.395 0.022
0.206 0.406 0.119
0.266 0.432 0.120
0.371 0.475 0.094
0.541 0.521 0.015
0.727 0.547 0.004
0.909 0.572 0.002
1.000 0.585 0.073
0.307 0.553 0.220
0.354 0.574 0.223
0.435 0.611 0.214
0.566 0.657 0.169
0.742 0.701 0.067
0.908 0.728 0.078
1.000 0.757 0.147
0.428 0.729 0.339
0.468 0.743 0.345
0.535 0.767 0.345
0.633 0.798 0.334
0.756 0.832 0.295
0.906 0.865 0.216
1.000 0.889 0.257
0.636 0.918 0.552
0.664 0.923 0.558
0.706 0.933 0.561
0.762 0.946 0.562
0.829 0.961 0.554
0.915 0.980 0.524
1.000 1.000 0.433
0.066 0.125 0.002
0.066 0.125 0.002
0.152 0.125 0.033
0.368 0.125 0.090
0.570 0.125 0.129
0.793 0.125 0.167
1.000 0.125 0.222
0.066 0.129 0.006
0.132 0.158 0.030
0.321 0.172 0.051
0.495 0.178 0.069
0.678 0.182 0.089
0.863 0.184 0.115
1.000 0.175 0.158
0.101 0.284 0.078
0.191 0.301 0.103
0.342 0.347 0.078
0.539 0.372 0.089
0.728 0.380 0.101
0.894 0.381 0.117
1.000 0.382 0.159
0.203 0.423 0.165
0.276 0.434 0.189
0.374 0.477 0.179
0.545 0.522 0.126
0.738 0.548 0.127
0.920 0.570 0.132
1.000 0.576 0.197
0.304 0.568 0.255
0.363 0.575 0.276
0.441 0.612 0.274
0.568 0.659 0.243
0.745 0.702 0.174
0.912 0.728 0.190
1.000 0.755 0.246
0.427 0.739 0.368
0.477 0.742 0.388
0.542 0.767 0.392
0.636 0.798 0.384
0.757 0.832 0.352
0.907 0.865 0.287
1.000 0.888 0.325
0.636 0.922 0.572
0.670 0.922 0.588
0.711 0.932 0.592
0.766 0.945 0.594
0.831 0.960 0.588
0.915 0.979 0.562
1.000 0.999 0.477
0.066 0.125 0.002
0.084 0.125 0.042
0.222 0.125 0.145
0.389 0.125 0.205
0.582 0.125 0.253
0.799 0.125 0.296
1.000 0.125 0.351
0.066 0.170 0.135
0.144 0.168 0.192
0.302 0.179 0.210
0.471 0.189 0.238
0.661 0.194 0.265
0.854 0.196 0.292
1.000 0.188 0.330
0.075 0.316 0.202
0.179 0.328 0.216
0.345 0.338 0.226
0.541 0.351 0.248
0.730 0.356 0.264
0.899 0.358 0.280
1.000 0.366 0.319
0.185 0.450 0.249
0.276 0.456 0.265
0.381 0.477 0.289
0.547 0.518 0.263
0.752 0.545 0.278
0.924 0.556 0.292
1.000 0.561 0.337
0.298 0.590 0.319
0.363 0.594 0.336
0.452 0.612 0.361
0.570 0.659 0.345
0.746 0.699 0.304
0.917 0.725 0.323
1.000 0.747 0.371
0.424 0.754 0.421
0.477 0.756 0.438
0.554 0.765 0.464
0.641 0.797 0.463
0.757 0.831 0.438
0.907 0.863 0.387
1.000 0.887 0.424
0.633 0.928 0.606
0.670 0.928 0.621
0.719 0.931 0.641
0.771 0.944 0.645
0.833 0.959 0.642
0.915 0.978 0.620
1.000 0.999 0.546
0.074 0.125 0.197
0.146 0.125 0.248
0.275 0.125 0.298
0.425 0.125 0.344
0.596 0.125 0.382
0.803 0.125 0.429
1.000 0.125 0.493
0.066 0.191 0.311
0.169 0.186 0.345
0.318 0.193 0.358
0.471 0.204 0.380
0.637 0.217 0.404
0.840 0.219 0.445
1.000 0.222 0.496
0.096 0.337 0.354
0.201 0.342 0.375
0.348 0.343 0.392
0.509 0.349 0.404
0.694 0.357 0.428
0.881 0.362 0.456
1.000 0.377 0.496
0.144 0.479 0.380
0.239 0.488 0.390
0.372 0.499 0.403
0.547 0.505 0.410
0.746 0.518 0.431
0.918 0.527 0.452
1.000 0.539 0.489
0.263 0.621 0.415
0.342 0.626 0.425
0.456 0.630 0.449
0.573 0.656 0.468
0.743 0.690 0.443
0.922 0.718 0.471
1.000 0.729 0.512
0.414 0.773 0.498
0.472 0.775 0.511
0.559 0.778 0.536
0.652 0.794 0.561
0.757 0.828 0.545
0.905 0.858 0.506
1.000 0.883 0.546
0.632 0.936 0.656
0.668 0.936 0.667
0.722 0.937 0.687
0.780 0.943 0.707
0.838 0.958 0.708
0.915 0.977 0.691
1.000 0.999 0.631
0.088 0.125 0.416
0.186 0.125 0.439
0.316 0.125 0.469
0.459 0.125 0.503
0.623 0.130 0.537
0.807 0.142 0.574
1.000 0.148 0.641
0.088 0.213 0.480
0.198 0.207 0.506
0.340 0.213 0.518
0.488 0.221 0.535
0.650 0.232 0.559
0.827 0.246 0.589
1.000 0.264 0.649
0.124 0.356 0.516
0.224 0.356 0.538
0.364 0.354 0.560
0.519 0.358 0.568
0.684 0.366 0.584
0.857 0.375 0.609
1.000 0.398 0.658
0.170 0.498 0.543
0.261 0.503 0.558
0.387 0.508 0.578
0.546 0.507 0.590
0.713 0.511 0.599
0.889 0.523 0.626
1.000 0.543 0.662
0.221 0.648 0.565
0.301 0.655 0.573
0.417 0.665 0.584
0.572 0.671 0.594
0.741 0.676 0.599
0.911 0.689 0.623
1.000 0.704 0.657
0.378 0.797 0.601
0.443 0.799 0.609
0.544 0.802 0.624
0.662 0.803 0.652
0.758 0.823 0.663
0.901 0.850 0.636
1.000 0.877 0.678
0.624 0.945 0.718
0.662 0.946 0.725
0.720 0.946 0.740
0.787 0.946 0.763
0.845 0.956 0.778
0.916 0.975 0.768
1.000 0.998 0.723
0.118 0.134 0.655
0.228 0.137 0.665
0.356 0.141 0.680
0.494 0.148 0.697
0.650 0.156 0.720
0.823 0.168 0.750
0.998 0.225 0.787
0.130 0.241 0.685
0.236 0.235 0.703
0.371 0.239 0.712
0.514 0.246 0.723
0.670 0.254 0.740
0.839 0.266 0.764
0.999 0.317 0.793
0.164 0.378 0.711
0.257 0.375 0.731
0.387 0.370 0.749
0.539 0.373 0.754
0.696 0.379 0.764
0.857 0.393 0.779
1.000 0.429 0.803
0.207 0.521 0.736
0.291 0.522 0.749
0.408 0.520 0.768
0.562 0.517 0.780
0.719 0.522 0.781
0.872 0.534 0.789
1.000 0.558 0.814
0.259 0.669 0.751
0.334 0.673 0.759
0.444 0.677 0.771
0.584 0.679 0.784
0.736 0.677 0.787
0.882 0.682 0.791
1.000 0.698 0.818
0.343 0.819 0.761
0.403 0.822 0.765
0.498 0.827 0.772
0.620 0.833 0.779
0.758 0.834 0.785
0.898 0.837 0.787
1.000 0.850 0.813
0.593 0.959 0.802
0.636 0.959 0.807
0.702 0.960 0.815
0.779 0.960 0.828
0.853 0.960 0.847
0.918 0.972 0.857
1.000 0.992 0.827
0.204 0.191 0.918
0.299 0.194 0.921
0.417 0.197 0.927
0.554 0.203 0.934
0.697 0.211 0.941
0.846 0.242 0.948
0.999 0.304 0.960
0.209 0.287 0.932
0.302 0.284 0.938
0.425 0.287 0.941
0.565 0.291 0.946
0.709 0.304 0.949
0.854 0.327 0.953
0.999 0.374 0.963
0.236 0.415 0.942
0.314 0.407 0.952
0.436 0.404 0.959
0.582 0.411 0.959
0.724 0.420 0.959
0.865 0.435 0.960
1.000 0.472 0.967
0.281 0.556 0.950
0.352 0.554 0.956
0.458 0.548 0.965
0.598 0.547 0.969
0.740 0.552 0.967
0.876 0.562 0.966
1.000 0.589 0.970
0.337 0.699 0.953
0.399 0.699 0.957
0.496 0.698 0.963
0.619 0.695 0.970
0.754 0.693 0.972
0.885 0.696 0.969
1.000 0.713 0.971
0.410 0.838 0.952
0.463 0.839 0.955
0.549 0.841 0.960
0.657 0.843 0.965
0.772 0.842 0.969
0.894 0.839 0.970
1.000 0.843 0.970
0.538 0.976 0.950
0.580 0.977 0.952
0.645 0.978 0.954
0.726 0.980 0.956
0.812 0.982 0.959
0.908 0.983 0.961
1.000 0.982 0.962
