LUTFilters/Resources/PRESET_Fujifilm_QuickSnap.cube
#Created by: Pixelmator Pro
#Color profile: "sRGB IEC61966-2.1"
TITLE "PRESET_Fujifilm_QuickSnap"
#Data domain
#LUT size
LUT_3D_SIZE 7
DOMAIN_MIN 0.000000 0.000000 0.000000
DOMAIN_MAX 0.882353 0.882353 0.882353
0.066 0.125 0.002
0.066 0.125 0.002
0.241 0.130 0.002
0.476 0.141 0.002
0.692 0.156 0.003
0.863 0.220 0.061
1.000 0.331 0.184
0.066 0.151 0.002
0.100 0.228 0.022
0.317 0.285 0.002
0.552 0.293 0.002
0.723 0.318 0.033
0.876 0.355 0.095
1.000 0.423 0.202
0.132 0.336 0.071
0.202 0.365 0.122
0.264 0.435 0.180
0.458 0.495 0.087
0.701 0.511 0.062
0.893 0.511 0.152
1.000 0.550 0.230
0.241 0.484 0.187
0.303 0.497 0.224
0.354 0.543 0.278
0.408 0.614 0.327
0.578 0.675 0.255
0.828 0.702 0.188
1.000 0.698 0.267
0.342 0.624 0.295
0.398 0.628 0.321
0.441 0.659 0.366
0.493 0.705 0.417
0.544 0.767 0.461
0.729 0.827 0.371
0.999 0.857 0.264
0.451 0.771 0.410
0.497 0.773 0.429
0.542 0.789 0.465
0.587 0.818 0.512
0.637 0.854 0.561
0.694 0.907 0.612
0.937 0.962 0.448
0.618 0.940 0.587
0.652 0.941 0.601
0.703 0.942 0.626
0.735 0.954 0.662
0.771 0.969 0.703
0.816 0.991 0.752
0.880 1.000 0.816
0.066 0.125 0.002
0.069 0.125 0.005
0.276 0.125 0.098
0.494 0.125 0.136
0.684 0.159 0.166
0.856 0.219 0.204
1.000 0.326 0.278
0.066 0.191 0.073
0.160 0.220 0.103
0.366 0.248 0.124
0.552 0.273 0.146
0.722 0.302 0.173
0.876 0.342 0.214
1.000 0.412 0.284
0.116 0.359 0.150
0.232 0.369 0.179
0.305 0.425 0.239
0.505 0.479 0.181
0.742 0.484 0.214
0.889 0.501 0.254
1.000 0.541 0.307
0.234 0.500 0.241
0.313 0.506 0.265
0.383 0.539 0.318
0.437 0.606 0.367
0.608 0.666 0.303
0.850 0.688 0.270
1.000 0.690 0.339
0.338 0.636 0.334
0.396 0.640 0.353
0.463 0.657 0.396
0.515 0.701 0.448
0.565 0.762 0.492
0.749 0.822 0.406
1.000 0.848 0.335
0.447 0.779 0.440
0.492 0.782 0.455
0.559 0.788 0.488
0.604 0.816 0.536
0.653 0.852 0.585
0.710 0.904 0.636
0.945 0.959 0.481
0.615 0.943 0.609
0.648 0.944 0.620
0.702 0.945 0.644
0.745 0.953 0.678
0.781 0.968 0.719
0.826 0.990 0.767
0.888 1.000 0.829
0.066 0.129 0.093
0.140 0.125 0.203
0.309 0.125 0.265
0.481 0.145 0.297
0.665 0.182 0.327
0.843 0.239 0.359
0.999 0.333 0.407
0.066 0.231 0.239
0.163 0.236 0.292
0.344 0.250 0.302
0.516 0.274 0.318
0.696 0.303 0.340
0.860 0.342 0.365
1.000 0.405 0.406
0.074 0.388 0.293
0.195 0.401 0.306
0.362 0.413 0.320
0.548 0.433 0.332
0.726 0.455 0.352
0.878 0.481 0.377
1.000 0.524 0.415
0.194 0.527 0.332
0.292 0.534 0.344
0.415 0.540 0.375
0.480 0.590 0.427
0.655 0.643 0.380
0.884 0.653 0.404
1.000 0.676 0.443
0.322 0.655 0.400
0.386 0.659 0.414
0.479 0.664 0.443
0.549 0.694 0.495
0.599 0.752 0.541
0.781 0.811 0.464
1.000 0.830 0.453
0.437 0.792 0.492
0.485 0.795 0.504
0.560 0.798 0.528
0.631 0.813 0.573
0.680 0.847 0.624
0.735 0.899 0.674
0.960 0.954 0.539
0.609 0.949 0.646
0.644 0.950 0.656
0.697 0.951 0.673
0.762 0.953 0.703
0.797 0.967 0.743
0.840 0.988 0.790
0.900 1.000 0.849
0.066 0.146 0.345
0.164 0.125 0.415
0.329 0.142 0.438
0.489 0.172 0.459
0.652 0.212 0.478
0.824 0.266 0.504
0.997 0.347 0.549
0.066 0.260 0.416
0.175 0.257 0.462
0.348 0.269 0.473
0.509 0.290 0.480
0.669 0.318 0.491
0.837 0.356 0.515
0.999 0.414 0.553
0.093 0.408 0.456
0.210 0.416 0.474
0.360 0.423 0.494
0.525 0.431 0.497
0.687 0.447 0.505
0.853 0.475 0.526
1.000 0.516 0.556
0.158 0.551 0.475
0.254 0.560 0.484
0.380 0.572 0.495
0.537 0.579 0.507
0.702 0.595 0.513
0.872 0.619 0.535
1.000 0.655 0.566
0.271 0.681 0.501
0.347 0.686 0.509
0.455 0.692 0.523
0.583 0.696 0.555
0.643 0.737 0.602
0.823 0.788 0.547
1.000 0.802 0.594
0.410 0.810 0.566
0.463 0.812 0.575
0.547 0.816 0.592
0.647 0.820 0.622
0.714 0.842 0.672
0.766 0.891 0.720
0.978 0.944 0.615
0.596 0.956 0.696
0.633 0.957 0.704
0.690 0.958 0.718
0.757 0.960 0.739
0.818 0.965 0.773
0.860 0.985 0.819
0.915 1.000 0.874
0.066 0.169 0.561
0.182 0.156 0.603
0.343 0.177 0.614
0.497 0.206 0.624
0.654 0.244 0.636
0.813 0.295 0.649
0.987 0.364 0.684
0.071 0.287 0.602
0.192 0.285 0.631
0.354 0.294 0.641
0.510 0.313 0.643
0.666 0.339 0.649
0.821 0.375 0.657
0.994 0.426 0.690
0.119 0.429 0.622
0.228 0.432 0.638
0.365 0.435 0.659
0.523 0.443 0.660
0.677 0.458 0.660
0.831 0.480 0.667
0.999 0.522 0.699
0.184 0.567 0.632
0.272 0.573 0.642
0.389 0.582 0.655
0.531 0.588 0.667
0.686 0.593 0.669
0.845 0.607 0.677
1.000 0.643 0.704
0.248 0.699 0.643
0.316 0.705 0.649
0.415 0.715 0.658
0.542 0.725 0.667
0.696 0.729 0.677
0.858 0.746 0.682
1.000 0.777 0.711
0.346 0.831 0.668
0.407 0.834 0.672
0.503 0.838 0.681
0.623 0.842 0.696
0.743 0.844 0.726
0.801 0.880 0.772
0.998 0.925 0.715
0.570 0.965 0.758
0.610 0.966 0.763
0.673 0.968 0.773
0.747 0.969 0.788
0.823 0.971 0.810
0.882 0.982 0.852
0.932 1.000 0.903
0.080 0.211 0.775
0.207 0.209 0.790
0.359 0.229 0.793
0.507 0.256 0.795
0.656 0.288 0.798
0.811 0.331 0.803
0.979 0.387 0.821
0.109 0.326 0.782
0.220 0.323 0.800
0.365 0.329 0.809
0.516 0.346 0.807
0.664 0.369 0.806
0.818 0.397 0.811
0.983 0.445 0.826
0.159 0.454 0.790
0.255 0.455 0.801
0.377 0.456 0.817
0.525 0.463 0.819
0.674 0.476 0.818
0.828 0.495 0.822
0.988 0.534 0.832
0.220 0.588 0.795
0.298 0.592 0.802
0.402 0.596 0.814
0.533 0.598 0.827
0.683 0.603 0.829
0.837 0.615 0.830
0.996 0.645 0.840
0.266 0.716 0.801
0.331 0.720 0.807
0.426 0.727 0.816
0.548 0.734 0.827
0.688 0.738 0.835
0.842 0.743 0.836
0.999 0.763 0.847
0.320 0.847 0.812
0.374 0.850 0.815
0.460 0.856 0.821
0.571 0.863 0.827
0.698 0.870 0.834
0.850 0.872 0.841
1.000 0.890 0.849
0.504 0.978 0.843
0.550 0.979 0.846
0.623 0.981 0.850
0.713 0.982 0.858
0.805 0.983 0.870
0.900 0.984 0.893
0.955 1.000 0.938
0.167 0.312 0.963
0.259 0.306 0.971
0.389 0.321 0.970
0.526 0.338 0.970
0.666 0.355 0.972
0.815 0.380 0.974
0.979 0.428 0.981
0.194 0.394 0.963
0.278 0.392 0.969
0.392 0.391 0.976
0.530 0.403 0.976
0.672 0.417 0.977
0.820 0.438 0.979
0.982 0.481 0.984
0.228 0.501 0.965
0.300 0.500 0.971
0.401 0.497 0.980
0.534 0.499 0.985
0.678 0.510 0.985
0.827 0.527 0.985
0.986 0.563 0.988
0.262 0.622 0.970
0.327 0.623 0.974
0.421 0.624 0.981
0.542 0.623 0.990
0.684 0.626 0.993
0.834 0.638 0.992
0.990 0.665 0.993
0.301 0.745 0.974
0.359 0.747 0.978
0.447 0.749 0.983
0.560 0.751 0.989
0.689 0.752 0.996
0.838 0.756 0.997
0.993 0.772 0.996
0.350 0.865 0.977
0.401 0.867 0.980
0.482 0.871 0.984
0.587 0.875 0.988
0.706 0.879 0.994
0.841 0.880 0.998
0.994 0.885 0.997
0.440 0.992 0.982
0.483 0.993 0.983
0.552 0.995 0.984
0.640 0.997 0.987
0.738 0.999 0.989
0.852 0.999 0.992
0.995 0.999 0.996
