LUTFilters/Resources/PRESET_Kodak_WaterSport.cube
#Created by: Pixelmator Pro
#Color profile: "sRGB IEC61966-2.1"
TITLE "PRESET_Kodak_WaterSport"
#Data domain
#LUT size
LUT_3D_SIZE 7
DOMAIN_MIN 0.000000 0.000000 0.000000
DOMAIN_MAX 0.882353 0.882353 0.882353
0.066 0.125 0.003
0.066 0.125 0.003
0.075 0.125 0.003
0.332 0.125 0.003
0.535 0.125 0.005
0.767 0.125 0.009
0.997 0.125 0.020
0.066 0.125 0.003
0.095 0.149 0.003
0.249 0.196 0.003
0.417 0.221 0.003
0.596 0.236 0.003
0.803 0.248 0.003
1.000 0.259 0.003
0.080 0.256 0.003
0.158 0.288 0.003
0.305 0.334 0.003
0.471 0.366 0.003
0.661 0.391 0.003
0.847 0.406 0.003
1.000 0.421 0.003
0.138 0.408 0.045
0.215 0.431 0.037
0.339 0.472 0.003
0.506 0.511 0.003
0.687 0.541 0.003
0.874 0.570 0.003
1.000 0.595 0.003
0.212 0.572 0.104
0.283 0.589 0.104
0.385 0.630 0.051
0.538 0.669 0.003
0.713 0.699 0.003
0.888 0.728 0.003
1.000 0.760 0.003
0.309 0.775 0.189
0.377 0.783 0.204
0.467 0.807 0.183
0.596 0.839 0.122
0.752 0.869 0.003
0.902 0.880 0.003
1.000 0.900 0.003
0.524 0.961 0.414
0.577 0.961 0.436
0.638 0.970 0.431
0.718 0.981 0.418
0.809 0.995 0.388
0.919 1.000 0.307
1.000 1.000 0.003
0.066 0.125 0.003
0.066 0.125 0.003
0.144 0.125 0.031
0.349 0.125 0.079
0.543 0.125 0.108
0.769 0.125 0.132
0.997 0.125 0.162
0.066 0.127 0.005
0.116 0.157 0.024
0.323 0.160 0.025
0.509 0.144 0.007
0.689 0.138 0.003
0.868 0.133 0.003
1.000 0.125 0.004
0.066 0.278 0.059
0.156 0.292 0.073
0.325 0.345 0.010
0.532 0.365 0.003
0.728 0.373 0.003
0.892 0.371 0.003
1.000 0.372 0.003
0.118 0.426 0.105
0.220 0.431 0.130
0.337 0.478 0.093
0.529 0.527 0.003
0.729 0.549 0.003
0.911 0.568 0.003
1.000 0.574 0.003
0.190 0.588 0.159
0.286 0.591 0.186
0.386 0.630 0.163
0.542 0.686 0.050
0.735 0.716 0.003
0.913 0.739 0.003
1.000 0.760 0.003
0.292 0.786 0.237
0.377 0.786 0.269
0.471 0.806 0.269
0.596 0.838 0.232
0.755 0.874 0.122
0.916 0.892 0.003
1.000 0.907 0.003
0.515 0.965 0.445
0.572 0.964 0.467
0.642 0.968 0.481
0.720 0.980 0.471
0.809 0.994 0.446
0.918 1.000 0.376
1.000 1.000 0.004
0.066 0.125 0.003
0.081 0.125 0.040
0.204 0.125 0.136
0.364 0.125 0.192
0.551 0.125 0.236
0.774 0.125 0.272
0.998 0.125 0.312
0.066 0.168 0.118
0.112 0.157 0.204
0.292 0.154 0.211
0.477 0.142 0.225
0.678 0.125 0.234
0.863 0.125 0.243
1.000 0.125 0.259
0.066 0.300 0.187
0.110 0.321 0.203
0.313 0.329 0.203
0.558 0.334 0.205
0.773 0.315 0.180
0.951 0.265 0.116
1.000 0.167 0.003
0.066 0.451 0.217
0.188 0.459 0.224
0.338 0.472 0.249
0.539 0.531 0.171
0.788 0.552 0.120
0.978 0.545 0.003
1.000 0.515 0.003
0.147 0.612 0.258
0.258 0.617 0.268
0.391 0.626 0.296
0.539 0.685 0.250
0.768 0.741 0.070
0.958 0.757 0.003
1.000 0.758 0.003
0.272 0.800 0.328
0.357 0.802 0.342
0.481 0.802 0.381
0.598 0.835 0.364
0.751 0.872 0.303
0.936 0.909 0.071
1.000 0.919 0.003
0.502 0.970 0.500
0.558 0.970 0.515
0.646 0.968 0.549
0.724 0.978 0.552
0.810 0.992 0.534
0.917 1.000 0.478
1.000 1.000 0.228
0.066 0.126 0.183
0.126 0.125 0.237
0.248 0.125 0.284
0.394 0.125 0.329
0.562 0.125 0.366
0.775 0.125 0.410
0.998 0.125 0.464
0.066 0.194 0.276
0.111 0.159 0.369
0.294 0.153 0.376
0.469 0.140 0.392
0.656 0.125 0.406
0.854 0.125 0.427
1.000 0.125 0.454
0.066 0.325 0.335
0.106 0.331 0.385
0.302 0.322 0.412
0.505 0.313 0.411
0.727 0.298 0.422
0.934 0.246 0.420
1.000 0.125 0.387
0.066 0.466 0.366
0.085 0.489 0.385
0.287 0.502 0.393
0.518 0.506 0.387
0.790 0.513 0.389
0.976 0.491 0.362
1.000 0.450 0.321
0.066 0.635 0.391
0.172 0.651 0.393
0.360 0.656 0.407
0.535 0.674 0.434
0.758 0.729 0.358
0.967 0.748 0.339
1.000 0.730 0.308
0.218 0.818 0.443
0.324 0.820 0.452
0.458 0.821 0.473
0.606 0.827 0.510
0.745 0.866 0.477
0.932 0.904 0.350
1.000 0.916 0.314
0.485 0.976 0.581
0.542 0.976 0.591
0.629 0.975 0.610
0.732 0.974 0.648
0.812 0.988 0.641
0.914 1.000 0.602
1.000 1.000 0.408
0.066 0.131 0.390
0.151 0.125 0.422
0.282 0.125 0.452
0.422 0.125 0.486
0.587 0.125 0.522
0.783 0.125 0.561
0.999 0.125 0.623
0.066 0.215 0.444
0.105 0.158 0.549
0.301 0.148 0.559
0.476 0.131 0.574
0.659 0.125 0.587
0.845 0.125 0.602
1.000 0.125 0.639
0.066 0.346 0.500
0.095 0.337 0.573
0.294 0.318 0.615
0.500 0.305 0.614
0.707 0.290 0.624
0.905 0.252 0.635
1.000 0.169 0.649
0.066 0.488 0.536
0.066 0.503 0.588
0.280 0.507 0.616
0.502 0.494 0.635
0.735 0.481 0.631
0.941 0.470 0.638
1.000 0.439 0.624
0.066 0.645 0.559
0.066 0.671 0.582
0.253 0.691 0.598
0.483 0.699 0.603
0.732 0.698 0.593
0.958 0.706 0.599
1.000 0.683 0.578
0.066 0.839 0.593
0.225 0.842 0.596
0.401 0.844 0.604
0.586 0.843 0.625
0.742 0.854 0.652
0.921 0.892 0.571
1.000 0.907 0.562
0.450 0.983 0.676
0.513 0.983 0.683
0.608 0.983 0.695
0.718 0.982 0.717
0.818 0.983 0.747
0.911 0.999 0.727
1.000 1.000 0.588
0.066 0.139 0.628
0.168 0.125 0.656
0.310 0.125 0.674
0.454 0.125 0.695
0.615 0.125 0.719
0.803 0.125 0.750
0.999 0.125 0.793
0.066 0.237 0.664
0.086 0.149 0.766
0.303 0.133 0.777
0.486 0.125 0.782
0.666 0.125 0.786
0.852 0.125 0.798
1.000 0.125 0.819
0.066 0.367 0.705
0.066 0.340 0.789
0.281 0.310 0.827
0.499 0.295 0.830
0.707 0.271 0.836
0.900 0.249 0.844
1.000 0.239 0.845
0.066 0.512 0.741
0.066 0.515 0.799
0.261 0.507 0.838
0.487 0.484 0.864
0.720 0.474 0.854
0.911 0.469 0.848
1.000 0.457 0.847
0.066 0.670 0.764
0.066 0.689 0.803
0.259 0.699 0.830
0.480 0.698 0.845
0.711 0.684 0.848
0.911 0.672 0.836
1.000 0.659 0.836
0.066 0.838 0.779
0.066 0.859 0.800
0.284 0.865 0.805
0.481 0.869 0.808
0.692 0.872 0.808
0.900 0.867 0.797
1.000 0.871 0.803
0.358 0.994 0.800
0.433 0.994 0.802
0.546 0.994 0.807
0.679 0.993 0.816
0.805 0.991 0.833
0.911 0.995 0.855
1.000 1.000 0.777
0.066 0.159 0.922
0.177 0.125 0.940
0.339 0.125 0.945
0.495 0.125 0.952
0.659 0.125 0.959
0.834 0.125 0.970
1.000 0.125 0.986
0.066 0.269 0.935
0.066 0.153 0.988
0.303 0.125 0.996
0.500 0.125 0.996
0.687 0.125 0.998
0.865 0.125 0.998
1.000 0.125 1.000
0.066 0.399 0.952
0.066 0.358 0.995
0.240 0.285 1.000
0.494 0.280 1.000
0.706 0.276 1.000
0.889 0.273 1.000
1.000 0.283 1.000
0.066 0.545 0.969
0.066 0.534 0.999
0.251 0.513 1.000
0.475 0.485 1.000
0.705 0.480 1.000
0.893 0.474 1.000
1.000 0.477 1.000
0.066 0.703 0.983
0.066 0.709 1.000
0.272 0.706 1.000
0.477 0.694 1.000
0.691 0.675 1.000
0.891 0.665 1.000
1.000 0.660 1.000
0.066 0.859 0.989
0.101 0.870 1.000
0.310 0.871 1.000
0.493 0.870 1.000
0.685 0.866 1.000
0.879 0.853 1.000
1.000 0.840 1.000
0.161 1.000 0.981
0.268 1.000 0.982
0.395 1.000 0.982
0.539 1.000 0.983
0.694 1.000 0.983
0.859 1.000 0.983
1.000 0.999 0.973
